X:1
T:Piano Sonata
T:Piano Sonata
T:L.v.Beethoven, Op.31 No.1 
C:L.v.Beethoven, Op.31 No.1
%%score { ( 1 4 5 7 ) | ( 2 3 6 8 ) }
L:1/8
Q:1/4=144
M:2/4
K:G
V:1 treble nm="Piano" snm="Pno."
V:4 treble 
V:5 treble 
V:7 treble 
V:2 bass 
V:3 bass 
V:6 bass 
V:8 bass 
V:1
"^Allegro vivace."!p! g/- | g3 f/e/ | d/^d/e/B/ =d/c/B/A/ |: G2 z3/2 [B,DG]/- | %4
 [B,DG]>[B,DB]-[B,DB]>[B,DG]- | [B,DG] z z z/ [B,DG]/- | [B,DG]>[DGBd]-[DGBd]>[B,DG]- | %7
 [B,DG] z z z/!f![Q:1/4=140] [B,DGB]/- | [B,DGB]>[GBeg]-[GBeg]>[FAdf]- | [FAdf] z z2 | %10
!p![Q:1/4=136] .[FAd] z .[EGA^c] z | .[DFAd] z z z/!f! =f/- |[Q:1/4=144] f3 e/d/ | %13
 =c/^c/d/A/ =c/_B/A/G/ | =F2 z3/2!p! [A,CF]/- | [A,CF]>[A,CA]-[A,CA]>[A,C=F]- | %16
 [A,CF] z z z/ [A,C=F]/- | [A,C=F]>[CFAc]-[CFAc]>[A,CF]- | [A,CF] z z z/!f![Q:1/4=140] [A,C=FA]/- | %19
 [A,CFA]>[=FAd=f]-[FAdf]>[EGce]- | [EGce] z z2 |!p![Q:1/4=136] .[EGc] z .[D=FGB] z | %22
 .[CEGc] z z z/!f! [EGce]/- |[Q:1/4=140] [EGce]>[ceac']-[ceac']>[Bdgb]- | [Bdgb] z z2 | %25
!p![Q:1/4=138] .[Bdg] z .[Adf] z | .[GBdg] z z2 |[Q:1/4=136] .[Bdgb] z .[Adfa] z | .[Bdgb] z z2 | %29
[Q:1/4=132] .[dgbd'] z .[dfad'] z |[Q:1/4=144] g/"_cresc."^a/b/f/ =a/g/f/e/ | d/^d/e/B/ =d/c/B/A/ | %32
 G/^A/B/F/ =A/G/F/E/ | D/^D/E/B,/ =D/C/B,/A,/ |[K:bass]!f! G,/^A,/B,/F,/ =A,/G,/F,/E,/ | %35
 D,/^D,/E,/B,,/ =D,/C,/B,,/A,,/ | G,,/F,,/G,,/A,,/ _B,,/=B,,/C,/^C,/ | D,/^C,/D,/E,/ F,/D,/E,/F,/ | %38
 G,/F,/G,/A,/ _B,/=B,/C/^C/ |[K:treble][Q:1/4=134] .D/[Q:1/4=144](D/F/A/ .d/)(d/f/a/ | %40
[Q:1/4=134] .d'/)!f![Q:1/4=144](d'/a/f/ .d/)(d/A/F/ | %41
[Q:1/4=134] .D/)[Q:1/4=144](D/F/A/ .d/)(d/f/a/ | %42
[Q:1/4=134] .d'/)!f![Q:1/4=144](d'/a/f/ .d/)(d/A/F/ | %43
[Q:1/4=134] .D/)[Q:1/4=140](d/A/F/[K:bass][Q:1/4=130] .D/)[Q:1/4=136](D/A,/F,/) |[Q:1/4=144] D,4- | %45
 !fermata!D,7/2[K:treble]!p! g/- |[Q:1/4=144] g3 f/e/ | d/^d/e/B/ =d/c/B/A/ | G2 z3/2!f! [B,DG]/- | %49
 [B,DG]>[B,DB]-[B,DB]>[B,DG]- | [B,DG] z z z/ [B,DG]/- | [B,DG]>[DGBd]-[DGBd]>[B,DG]- | %52
 [B,DG] z z z/!f![Q:1/4=140] [B,DGB]/- | [B,DGB]>[GBeg]-[GBeg]>[F^A^cf]- | [FAcf] z z2 | %55
!p![Q:1/4=136] .[Be] z .[B^e] z | .[^Af] z z z/!f![Q:1/4=140] [B,DGB]/- | %57
 [B,DGB]>[GBeg]-[GBeg]>[F^A^cf]- | [FAcf] z z2 |!p![Q:1/4=138] .[EB] z .[^EB] z | .[F^A] z z2 | %61
!p![Q:1/4=136] .[Be] z .[B^e] z | .[^Af] z z2 |!p![Q:1/4=132] .[B,EB] z .[B,^EB] z | %64
[Q:1/4=142] [^A,F^A]/"_cresc."F/^E/F/ E/F/E/F/ | ^E/F/E/F/[Q:1/4=140] E/F/^G/.F/ | %66
!p![Q:1/4=134] .F[Q:1/4=142] ^d2 ^c |[Q:1/4=134] .B[Q:1/4=142] ^d2 B | %68
[Q:1/4=134] .^A[Q:1/4=142] f2 f- | f^g/f/ e/^d/e/^c/ |[Q:1/4=134] .B[Q:1/4=142] ^d2 ^c | %71
[Q:1/4=134] .B[Q:1/4=142] ^d2 B | ^A^c/B/ A/B/c/A/ | B z z2 | %74
!mp! [B,=D]/F/[B,D]/F/ [B,D]/F/[B,D]/F/ | [B,D]/F/[B,D]/F/ [B,D]/F/[B,D]/F/ | %76
 [^CE]/F/[CE]/F/ [^A,C]/F/[A,C]/F/ | [^A,^C]/F/[A,C]/F/ [A,C]/F/[A,C]/F/ | %78
 [B,D]/F/[B,D]/F/ [B,^E]/^G/[B,E]/G/ | [=E=G]/A/[EG]/A/ [EG]/A/[EG]/A/ | %80
 [DF]/A/[DF]/A/ [^DA]/^B/[DA]/B/ | [^GB]/^c/[GB]/c/ [GB]/c/[GB]/c/ | %82
 [FA]/^c/[FA]/c/ [FA]/c/[FA]/c/ | F/^d/B/d/ G/e/B/e/ | E/^c/A/c/ F/=d/A/d/ | D/B/G/B/ E/^c/G/c/ | %86
 ^C/^A/F/A/ B,/B/B,/B/ | G/g/G/g/ ^C/^c/F/f/ |[Q:1/4=134] .[B,B]!p![Q:1/4=142] d2 !tenuto!.d | %89
 .^ce/d/ c/d/e/c/ |[Q:1/4=134] .d[Q:1/4=142] f2 !tenuto!.f | .^e^g/f/ e/f/g/e/ | %92
[Q:1/4=134] .f[Q:1/4=142] a2 !tenuto!.a |"_cresc." (a2- a/g/f/g/) | (g2- g/f/^e/f/) | %95
 (f2- f/e/f/e/-) |!f! e/e/f/e/ F/d/e/d/ |[Q:1/4=140] G/^c/d/c/[Q:1/4=136] E/^A/B/.A/ | %98
!p![Q:1/4=140] B2 z .d | ^c3 .^A | B2 z .^d |!p!!>(! ^c3!>)! .^A |!pp! B2 z .=d | ^c3 .^A | %104
"_cresc." .B.d.^c.^A | .B.d.^c.^A | .B.d.^c.^A | .B.d.^c!mp!.^A | %108
!p! .[DFB]2 z z/[K:bass] [F,B,D]/- | .[F,B,D]2 z z/ [D,F,B,]/- | .[D,F,B,]2 z2 | %111
[Q:1/4=136] .B,, z .D, z/[K:treble]!f![Q:1/4=144] g/- |1 g3 f/e/ | d/^d/e/B/ =d/c/B/(A/ :|2 %114
[Q:1/4=144] g3) f/e/ | d/^d/e/B/ =d/=c/B/A/ || G2 z z/!p! [B,DG]/- | [B,DG]>[B,DB]-[B,DB]>[B,DG]- | %118
 [B,DG] z z z/ [B,DG]/- | [B,DG]>[DGBd]-[DGBd]>[B,DG]- | [B,DG] z z z/!f![Q:1/4=140] [G,G]/- | %121
 [G,G]>[Gg]-[Gg]>[G,G]- | [G,G]>[Gg]-[Gg]>[G,G]- | [G,G]>[Gg]-[Gg]>[G,G]- | %124
 [G,G] z z z/!p![Q:1/4=142] c/- | c>_e-e>c- | c z z z/ c/- | c>c'-c'>c- | %128
 c z z z/!f![Q:1/4=140] [Cc]/- | [Cc]>[cc']-[cc']>[Cc]- | [Cc]>[cc']-[cc']>[Cc]- | %131
 [Cc]>[cc']-[cc']>[Cc]- | [Cc]>[cc']-[cc']>[=F=f]- | [Ff]>[=f=f']-[ff']>[=Ff]- | %134
 [Ff]>[=f=f']-[ff']>[=Ff]- | [Ff]>[=f=f']-[ff']>[=Ff]- |[Q:1/4=144] [Ff]/^c'/d'/a/ =c'/_b/a/g/ | %137
 =f/^f/g/d/ =f/_e/d/c/ | _B/^c/d/A/ =c/B/A/G/ | =F/^F/G/D/ =F/_E/D/C/ | %140
[K:bass] _B,/^C/D/A,/ =C/B,/A,/G,/ | =F,/^F,/G,/D,/ =F,/_E,/D,/C,/ | =B,, z[K:treble] g2- | %143
 g2 T=f2 | _e/d'/_e'/b/ d'/c'/_b/_a/ | g/_a/g/^f/ g/=f/_e/d/ | c/d/_e/B/ d/c/_B/_A/ | %147
 G/_A/G/^F/ G/=F/_E/D/ | C/D/_E/B,/ D/C/_B,/_A,/ |[K:bass] G,/_A,/_B,/A,/ G,/=F,/_E,/D,/ | %150
 ^C, z[K:treble] a2- | a2 Tg2 | =f/e/f/^c/ e/d/=c/_B/ | A/_B/A/^G/ A/=G/=F/E/ | %154
 D/E/=F/^C/ E/D/=C/_B,/ |[K:bass] A,/_B,/C/B,/ A,/B,/A,/G,/ | ^F,/A,/G,/_B,/ A,/C/B,/D/ | %157
 C/_E/D/C/ _B,/A,/G,/F,/ | G,/A,/_B,/A,/ G,/=F,/_E,/D,/ | ^C,/D,/=E,/D,/ C,/G,/E,/C,/ | %160
 D,/^F,/A,/F,/ _B,/G,/_E,/^C,/ | D,/F,/A,/F,/ _B,/G,/_E,/^C,/ | D,/F,/A,/F,/ _B,/G,/_E,/^C,/ | %163
[Q:1/4=140] D,/F,/A,/F,/[Q:1/4=136] _B,/G,/_E,/^C,/ | %164
[Q:1/4=130] .D,/[Q:1/4=144](D,/F,/A,/[K:treble] .D/)(D/F/A/ | %165
 .d/)(d/f/a/[Q:1/4=134] .d'/)[Q:1/4=144](d'/a/f/ | .d/)(d/A/F/[K:bass] .D/)(D/A,/F,/ | %167
[Q:1/4=134] .D,/)[Q:1/4=144](D,/F,/A,/ .D/)D/A,/F,/ | .D,/(D,/F,/A,/[K:treble] .C/)(D/F/A/ | %169
 .c/)(d/f/a/[Q:1/4=134] .c'/)[Q:1/4=144](c'/a/f/ | .d/)(c/A/F/[K:bass] .D/)(C/A,/F,/ | %171
[Q:1/4=140] .D,/)(D,/F,/A,/[Q:1/4=136] .C/)C/A,/F,/ |!f![Q:1/4=144] D,>D,-!p!D,>D,- | %173
 D,>D,-D,>D,- | D,>D,-D,>D,- | D,>D,-D,>D,- |!f! D,>D,-!p!D,>D,- | D,>D,-D,>D,- | D,>D,-D,>D,- | %179
 D,>D,-D,>D,- |!f! D,>D,-!p!D,>D,- | D,>D,-D,>D,- |[Q:1/4=140] D,>D,-D,>D,- | %183
[Q:1/4=136] D,>D,-D,>D,- |[Q:1/4=132] D,2 z z/[Q:1/4=140] [D,F,A,C]/- | [D,F,A,C]2 z z/ D,/- | %186
 D,2 z z/ [D,F,A,C]/- | [D,F,A,C]2 z z/ D,/- | D,2 z z/ [D,F,A,C]/- | [D,F,A,C]2 z z/ [D,F,A,C]/- | %190
 [D,F,A,C]2 z2 | z2 z z/!pp![Q:1/4=136] [D,F,A,C]/- | [D,F,A,C]2 z2 | %193
 z2 z z/!pp![Q:1/4=140] [D,F,A,C]/- | [D,F,A,C]2 z2 | z2 z z/[K:treble]!ff![Q:1/4=144] g/- | %196
 g3 f/e/ | d/^d/e/B/ =d/c/B/A/ | G2 z3/2!p! [B,DG]/- | [B,DG]>[B,DB]-[B,DB]>[B,DG]- | %200
 [B,DG] z z z/ [B,DG]/- | [B,DG]>[DGBd]-[DGBd]>[B,DG]- | [B,DG] z z z/!f![Q:1/4=140] [B,DGB]/- | %203
 [B,DGB]>[GBeg]-[GBeg]>[FAdf]- | [FAdf] z z2 |!p![Q:1/4=136] .[FAd] z .[EGA^c] z | %206
 .[DFAd] z z z/!f![Q:1/4=140] [EG=ce]/- | [EGce]>[ceac']-[ceac']>[Bdgb]- | [Bdgb] z z2 | %209
!p![Q:1/4=136] .[Bdg] z .[Adf] z | .[Bdg] z z z/!f![Q:1/4=140] [EG=ce]/- | %211
 [EGce]>[ceac']-[ceac']>[B^dgb]- | [Bdgb] z z2 |!p![Q:1/4=136] .[ea] z .[e^a] z | .[^db] z z2 | %215
!p![Q:1/4=132] .[Ae] z .[^Ae] z | .[B^d] z z2 |!p![Q:1/4=130] .[A,EA] z .[^A,E^A] z | %218
 .[B,^DB][Q:1/4=142]"_cresc." ^A/B/ A/B/A/B/ | ^A/B/A/B/[Q:1/4=140] A/B/^c/!mp!B/ | %220
!p![Q:1/4=134] .B[Q:1/4=142] ^g2 f |[Q:1/4=134] .e[Q:1/4=142] ^g2 e | %222
[Q:1/4=134] .^d[Q:1/4=142] b2 b- | b^c'/b/ a/^g/a/f/ |[Q:1/4=134] .e[Q:1/4=142] ^g2 f | %225
[Q:1/4=134] .e[Q:1/4=142] ^g2 e | ^df/e/ d/e/f/d/ | e z z2 |!mp! [E=G]/B/[EG]/B/ [EG]/B/[EG]/B/ | %229
 [EG]/B/[EG]/B/ [EG]/B/[EG]/B/ | [FA]/B/[FA]/B/ [^DF]/B/[DF]/B/ | [^DF]/B/[DF]/B/ [DF]/B/[DF]/B/ | %232
"_cresc." [EG]/B/[EG]/B/ [EG]/B/[EG]/B/ | [EG]/B/[EG]/B/ [E_B]/^c/[EB]/c/ | %234
 [A=c]/d/[Ac]/d/!ff! [FA]/d/[FA]/d/ | [FA]/d/[FA]/d/ [FA]/d/[FA]/d/ | %236
[Q:1/4=134] .[Gd]!p![Q:1/4=142] b2 a |[Q:1/4=134] .g[Q:1/4=142] b2 g | %238
[Q:1/4=134] .f[Q:1/4=142] d'2 d'- | d'e'/d'/ c'/b/c'/a/ |[Q:1/4=134] .g[Q:1/4=142] b2 a | %241
[Q:1/4=134] .g[Q:1/4=142] b2 g | fa/g/ f/g/a/f/ | g z z2 | %244
[K:bass]!mp! [G,B,]/D/[G,B,]/D/ [G,B,]/D/[G,B,]/D/ | [G,B,]/D/[G,B,]/D/ [G,B,]/D/[G,B,]/D/ | %246
 [A,C]/D/[A,C]/D/ [F,A,]/D/[F,A,]/D/ | [F,A,]/D/[F,A,]/D/ [F,A,]/D/[F,A,]/D/ | %248
 [G,B,]/D/[G,B,]/D/ [^G,D]/^E/[G,D]/E/ |[K:treble] [^C=E]/F/[CE]/F/ [CE]/F/[CE]/F/ | %250
 [B,D]/F/[B,D]/F/ [B,=F]/^G/[B,F]/G/ | [E=G]/A/[EG]/A/ [EG]/A/[EG]/A/ | %252
 [D=F]/A/[DF]/A/ [DF]/A/[DF]/A/ | D/B/G/B/ E/c/G/c/ | ^C/^A/^F/A/ D/B/F/B/ | %255
 B,/^G/E/G/ =C/=A/E/A/ | A,/F/D/F/ G,/G/G/g/ | E/e/E/e/ A,/A/D/d/ | .[G,G]!p! B2 !tenuto!.B | %259
 .^A^c/B/ A/B/c/A/ | .B d2 !tenuto!.d | .^ce/d/ c/d/e/c/ | .d =f2 !tenuto!.f | %263
"_cresc." (=f2- f/e/^d/e/) | (e2- e/=d/^c/d/) | (d2- d/=c/=d/c/-) |!f! c/c/d/c/ D/B/c/B/ | %267
[Q:1/4=140] E/A/B/A/[Q:1/4=136] C/F/G/.F/ |!p![Q:1/4=140] G2 z .B | A3 .F | G2 z ._B | %271
!p!!>(! A3!>)! .F |!pp! G2 z .B | A3 .F |"_cresc." .G.B.A.F | .G.B.A.F | .G.B.A.F | .G.B.A!mp!.F | %278
!p! .[B,DG]2 z z/[K:bass][Q:1/4=136] [G,B,D]/- | .[G,B,D]2 z z/ [D,G,B,]/- | .[D,G,B,]2 z2 | %281
[Q:1/4=132] .B,, z .D, z/[K:treble]!ff![Q:1/4=144] g/- | g3 f/e/ | d/^d/e/B/ =d/c/B/A/ | %284
 G/^A/B/F/ =A/G/F/E/ | D/^D/E/B,/ =D/C/B,/A,/ |[K:bass] G,/^A,/B,/F,/ =A,/G,/F,/E,/ | %287
 D,/^D,/E,/B,,/ =D,/C,/B,,/A,,/ | G,,/F,,/G,,/A,,/ _B,,/=B,,/C,/^C,/ | D,/^C,/D,/E,/ F,/D,/E,/F,/ | %290
 G,/F,/G,/A,/ _B,/=B,/C/^C/ |[K:treble][Q:1/4=134] .D/[Q:1/4=144](D/F/A/ .d/)(d/f/a/ | %292
[Q:1/4=134] .d'/)[Q:1/4=144](d'/a/f/ .d/)(d/A/F/ |[Q:1/4=134] .D/)[Q:1/4=144](D/F/A/ .d/)(d/f/a/ | %294
[Q:1/4=134] .d'/)[Q:1/4=144](d'/a/f/ .d/)(d/A/F/ | %295
[Q:1/4=140] .D/)(d/A/F/[K:bass][Q:1/4=136] .D/)(D/A,/F,/) |[Q:1/4=140] D,4- | %297
 !fermata!D,7/2[K:treble]!p! [DFA]/- | [DFA]4 |!pp![Q:1/4=136] .a z .c' z | .d z z2 | %301
 z2 z z/!pp![Q:1/4=140] [DFA]/- | [DFA]3 (3(^c/d/e/) | d z z z/ [B,DGB]/- | [B,DGB]3 (3(^c/d/e/) | %305
 d z z z/[Q:1/4=136] [DF=c]/- | [DFc]2- [DFc]>[Fcf]- | [Fcf]2- [Fcf]>[GBg]- | %308
[Q:1/4=132] .[GBg] z .[B,DG] z | z2 z z/[Q:1/4=140] [DFA]/- | [DFA]3 (3(d/f/a/) | %311
 d' z z z/ [B,DGB]/- | [B,DGB]3 (3(d/g/b/) | d' z z z/[Q:1/4=136] [DFc]/- | [DFc]2- [DFc]>[Fcf]- | %315
 [Fcf]2- [Fcf]>[GBg]- |[Q:1/4=132] .[GBg] z .[B,DG] z | z2 z z/[Q:1/4=136] [DFc]/- | %318
 [DFc]2- [DFc]>[Afa]- | [Afa]2- [Afa]>[Bgb]- |[Q:1/4=132] .[Bgb] z .[B,DB] z | %321
 z2 z z/!ff![Q:1/4=136] [DAcd]/- | [DAcd]2- [DAcd]>[dfad']- | [dfad']2- [dfad']>[Bdgb]- | %324
[Q:1/4=132] .[Bdgb] z .B, z |"_1" z4 |!p![Q:1/4=128] .[GBdg] z[K:bass] .[B,,D,G,] z | z2 z z/ |] %328
[K:C][M:9/8][K:treble][Q:1/4=71]"^Adagio grazioso."[Q:3/8=36]!p! !trill(!Tc6[Q:3/8=40][Q:3/8=44][Q:3/8=36][Q:3/8=44] e2- e/>[Q:3/8=38]c/ | %329
[Q:3/8=44] G3- G2 (.^F/.G/[Q:3/8=43] .^G/.A/[Q:3/8=42]._B/.=B/[Q:3/8=40].c/.^c/) | %330
[Q:3/8=36] !trill(!Td6[Q:3/8=40][Q:3/8=44][Q:3/8=38][Q:3/8=44] f2- f/>[Q:3/8=38]d/ | %331
[Q:3/8=44] G3- G2 (.G/.A/[Q:3/8=43] ._B/.=B/[Q:3/8=42].=c/.^c/[Q:3/8=38].d/.^d/)[Q:3/8=30] | %332
[Q:3/8=44]{/E} e3[Q:3/8=42][Q:3/8=40][Q:3/8=44]{/F} f3[Q:3/8=43][Q:3/8=41][Q:3/8=44]{/G} g3[Q:3/8=42] | %333
[Q:3/8=40] ^g[Q:3/8=44] a2- a a2- a[Q:3/8=42]{/=g} (f/e/[Q:3/8=40]f/d/) | %334
[Q:3/8=44] c{/d}(c/>B/c/>[Q:3/8=40]e/)[Q:3/8=44] G3-[Q:3/8=40] G/4(A/4G/4^F/4[Q:3/8=36] (6:4:6G/4A/4B/4[Q:3/8=32]c/4d/4e/4 =f/)z/4B/4 | %335
[Q:3/8=44] (([Fd]3 [Ec]))(G^F =FED)[Q:3/8=30] | %336
!p![Q:3/8=38] C[Q:3/8=44][G,CE][G,CE] [G,CE][G,CE][G,CE][Q:3/8=40] [G,CE][G,CE][G,CE][Q:3/8=40][Q:3/8=36][Q:3/8=36] | %337
[Q:3/8=38]"_leggieramente." z/4 C/4[Q:3/8=40]E/4D/4[Q:3/8=42] F/4E/4G/4F/4[Q:3/8=44] A/4G/4B/4A/4 c/4B/4d/4c/4[Q:3/8=42] (6:4:6e/4d/4f/4e/4g/4f/4 (6:4:6a/4g/4b/4a/4c'/4b/4[Q:3/8=40] (6:4:6d'/4c'/4e'/4d'/4c'/4b/4[Q:3/8=36] (6:4:6a/4g/4f/4e/4d/4c/4[Q:3/8=32] (7:4:7B/4A/4G/4F/4[Q:3/8=28]E/4[Q:3/8=26]D/4[Q:3/8=60]C/4[Q:3/8=30] x/4[Q:3/8=30] | %338
!p![Q:3/8=36] B,[Q:3/8=44][G,B,F][G,B,F] [G,B,F][G,B,F][G,B,F][Q:3/8=40] [G,B,F][G,B,F][Q:3/8=36][G,B,F][Q:3/8=40][Q:3/8=36] | %339
"_leggieramente." z/4 B,/4D/4C/4[Q:3/8=40] E/4D/4F/4E/4[Q:3/8=42] G/4F/4A/4G/4[Q:3/8=44] B/4A/4c/4B/4[Q:3/8=42] (6:4:6d/4c/4e/4d/4f/4e/4 (6:4:6g/4f/4a/4g/4b/4a/4[Q:3/8=40] (6:4:6c'/4b/4d'/4c'/4e'/4d'/4[Q:3/8=36] f'/8e'/8d'/8c'/8b/8a/8g/8b/8[Q:3/8=32] d'/8c'/8b/8a/8[Q:3/8=28]g/8f/8[Q:3/8=24]e/8d/8 | %340
[Q:3/8=40] ^d[Q:3/8=44] e2[Q:3/8=30][Q:3/8=44]{/e} c'3 c'/b/[Q:3/8=42]a/g/[Q:3/8=40]^f/e/ | %341
 (e[Q:3/8=44] =d2- d/).^c/.d/.c/.d/.c/ .d/.c/[Q:3/8=42].d/.e/[Q:3/8=40].^f/.g/ | %342
[Q:3/8=44] A/^G/A/B/[Q:3/8=38] (3.=c/.d/.e/[Q:3/8=40] (!>!e D2-) D/(E/4D/4[Q:3/8=38]^C/).D/[Q:3/8=36].E/.^F/ | %343
[Q:3/8=40]{/^F} (A3 G)!pp![Q:3/8=40](.G.G) (G^FG)[Q:3/8=38][Q:3/8=36] | %344
"_cresc." (G^FG) (GFG)[Q:3/8=38] x2[Q:3/8=36] [_B^c] | %345
[Q:3/8=40]!>(! [_B^c]3- [Bc]2 [Bc] [Bc]d!>)!e | %346
[Q:3/8=38] (e3[Q:3/8=36] =f)!pp![Q:3/8=40] (.F.F) (FEF) | %347
"_cresc." (FEF) (FEF)[Q:3/8=39] x2[Q:3/8=36] [_AB] | %348
[Q:3/8=40]!>(! [_AB]3- [AB]2 [AB]!>)![Q:3/8=39] [AB]c[Q:3/8=38]d | %349
!p![Q:3/8=40] ((e3[Q:3/8=38][Q:3/8=39] d3[Q:3/8=37][Q:3/8=38] c3 | %350
[Q:3/8=36] B2)) z!<(! z (A!<)!B[Q:3/8=39]!>(! c2[Q:3/8=36] ^F)!>)![Q:3/8=40] | %351
!p![Q:3/8=38] A[Q:3/8=40]G z (BA[Q:3/8=36]TB[Q:3/8=40][Q:3/8=39] dc[Q:3/8=36]^F) | %352
 G[Q:3/8=39] z/ (d/c/^F/ G)[Q:3/8=38] z/ (d/c/^F/ G)[Q:3/8=37] z/ (d/c/[Q:3/8=36]^F/) | %353
!p![Q:3/8=44] !fermata!TG6[Q:3/8=48][Q:3/8=52][Q:3/8=50] x2[Q:3/8=44] G/4^F/4G/4[Q:3/8=48]D/4E/4F/4[Q:3/8=52]G/4A/4B/4[Q:3/8=56]A/4G/4A/4[Q:3/8=60]B/4c/4d/4c/4B/4c/4d/4e/4^f/4g/4f/4e/4d/4e/4f/4g/4a/4 b/4a/4g/4a/4b/4c'/4d'/4e'/4f'/4e'/4d'/4^c'/4e'/4d'/4=c'/4b/4[Q:3/8=56]a/4c'/4b/4[Q:3/8=52]d'/4c'/4b/4[Q:3/8=48]a/4g/4^g/4[Q:3/8=44] (.b.a[Q:3/8=42].=g.=f[Q:3/8=40].e[Q:3/8=36].d) | %354
!p! !trill(!Tc6[Q:3/8=40][Q:3/8=44][Q:3/8=36][Q:3/8=44] e2- e/>[Q:3/8=38]c/ | %355
[Q:3/8=44] G3- G2[Q:3/8=43] (.^F/.G/[Q:3/8=42] .^G/.A/[Q:3/8=41]._B/.=B/[Q:3/8=40].c/.^c/) | %356
[Q:3/8=36] !trill(!Td6[Q:3/8=40][Q:3/8=44][Q:3/8=36][Q:3/8=40] (g2-[Q:3/8=32] g/4>f/4e/8d/8=c/8B/8 | %357
[Q:3/8=44] .A) G2- G2[Q:3/8=43] (.G/.A/[Q:3/8=42] ._B/.=B/[Q:3/8=41].=c/.^c/[Q:3/8=40].d/.^d/) | %358
 (5:4:5e/4f/4e/4^d/4e/4.c' z (5:4:5f/4g/4f/4e/4f/4.c' z (5:4:5g/4a/4g/4^f/4g/4.c' z | %359
"_cresc." ^g a2- a a2- a[Q:3/8=38]!>(!{/=g} f/e/[Q:3/8=36]f/d/!>)! | %360
[Q:3/8=40] (c/4d/4c/4B/4)[Q:3/8=44]"_cresc.".c/.d/.e/.f/[Q:3/8=43] .g/.a/[Q:3/8=42].b/.c'/[Q:3/8=41].d'/.e'/[Q:3/8=40]{d'e'} .f' z!p![Q:3/8=36] .B | %361
[Q:3/8=40] (([Fd]3[Q:3/8=44] ([Ec]))G_E[K:bass] C[Q:3/8=40]G,_E,) |[Q:3/8=44]!pp! C,2 z z2 z z2 z | %363
[K:treble] ([_E_e]3 [Cc]3 [_A,_A]3 | [F,F]6-) [F,F]2[Q:3/8=40] (F/f/) | %365
[Q:3/8=44]"_cresc." [Ff]2- [Ff]/[_E_e]/ ([Ee][_D_d]>[Cc]) ([Cc][_B,_B]>[_A,_A]) | %366
!f! [G,G]3 ([_DG_d]3[Q:3/8=43] [C_Ac]3 | %367
[Q:3/8=42]"_diminuendo" [_B,_D_B]3[Q:3/8=41]"^\n" [_A,C_A]3!p![Q:3/8=40] [G,B,D_E]3) | %368
[Q:3/8=38] .[_A,C_E]/[Q:3/8=44].[CE]/.[CE]/.[CE]/.[CE]/.[CE]/ .[CE]/.[CE]/.[CE]/.[CE]/.[CE]/.[CE]/ .[CE]/.[CE]/.[CE]/.[CE]/.[CE]/.[CE]/ | %369
{c'_d'} ._e'/.d'/.c'/._b/._a/.g/ .f/._e/._d/.c/._B/._A/ .G/.A/.B/.A/.c/.A/ | %370
 .G/.[_B,_D_E]/.[B,DE]/.[B,DE]/.[B,DE]/.[B,DE]/ .[B,DE]/.[B,DE]/.[B,DE]/.[B,DE]/.[B,DE]/.[B,DE]/ .[B,DE]/.[B,DE]/.[B,DE]/.[B,DE]/.[B,DE]/.[B,DE]/ | %371
!p! .[_D_E]/.[DE]/.[DE]/.[DE]/.[DE]/.[DE]/ .[DE]/.[DE]/.[DE]/.[DE]/.[DE]/.[DE]/ .[_B,DE]/.[B,DE]/.[B,DE]/.[B,DE]/.[B,DE]/.[B,DE]/ | %372
[Q:3/8=38] .[C_E]/[Q:3/8=44].[CE]/.[CE]/.[CE]/.[CE]/.[CE]/ .[CE]/.[CE]/.[CE]/.[CE]/.[CE]/.[CE]/ .[C=E]/.[CE]/.[CE]/.[CE]/.[CE]/.[CE]/ | %373
{_a_b} .c'/.b/.a/.g/.f/._e/ ._d/.c/._B/._A/.G/.F/ .=E/.F/.G/.F/.A/.F/ | %374
 .=E/.[G,_B,C]/.[G,B,C]/.[G,B,C]/.[G,B,C]/.[G,B,C]/ .[G,B,C]/.[G,B,C]/.[G,B,C]/.[G,B,C]/.[G,B,C]/.[G,B,C]/ .[G,B,C]/.[G,B,C]/.[G,B,C]/.[G,B,C]/.[G,B,C]/.[G,B,C]/ | %375
!p! .[_B,C]/.[B,C]/.[B,C]/.[B,C]/.[B,C]/.[B,C]/ .[B,C]/.[B,C]/.[B,C]/.[B,C]/.[B,C]/.[B,C]/ .[G,B,C]/.[G,B,C]/.[G,B,C]/.[G,B,C]/.[G,B,C]/.[G,B,C]/ | %376
 .[_A,C]/.[A,_D]/.[A,D]/.[A,D]/.[A,D]/.[A,D]/!p! (_a/f/._d/).d/.d/.d/[K:bass]!p! .[G,C]/.[G,C]/.[G,C]/.[G,C]/.[G,C]/.[G,C]/ | %377
 .[F,B,]/.[F,B,]/.[F,B,]/.[F,B,]/.[F,B,]/.[F,B,]/[K:treble]!p! (f/d/.B/).B/.B/.B/[K:bass]!p! .[_E,_A,]/.[E,A,]/.[E,A,]/.[E,A,]/.[E,A,]/.[E,A,]/ | %378
 .[D,G,]/.[D,G,]/.[D,G,]/.[D,G,]/.[D,G,]/.[D,G,]/[K:treble]!p! (d'/b/.f/).f/.f/.f/!p! (c'/g/._e/).e/.e/.e/ | %379
!p![Q:3/8=42] (_a/[Q:3/8=44]"_cresc."f/.[F_A_d]/).[FAd]/.[FAd]/.[FAd]/[Q:3/8=42] (a/[Q:3/8=44]f/.[FAd]/).[FAd]/.[FAd]/.[FAd]/[Q:3/8=42] (=a/[Q:3/8=44]_e/.[_E=Ac]/).[EAc]/[Q:3/8=42].[EAc]/.[EAc]/ | %380
!f![Q:3/8=44] [GB]2 z[Q:3/8=43] f3-[Q:3/8=42] f _e2[Q:3/8=40] | %381
!f! d2 z[Q:3/8=43] f3-[Q:3/8=41] f _e2[Q:3/8=39][Q:3/8=44] | %382
[Q:3/8=42]!mf! d3[Q:3/8=40][Q:3/8=42] _d3[Q:3/8=40][Q:3/8=42] c3[Q:3/8=40] | %383
[Q:3/8=41] =B3[Q:3/8=39][Q:3/8=41]"_dimin." z B2[Q:3/8=39][Q:3/8=41] z c2[Q:3/8=39] | %384
!pp![Q:3/8=40] z[K:bass] [_E^F]2[Q:3/8=38][Q:3/8=40] z [A,C]2[Q:3/8=38][Q:3/8=39] z [_E,^F,]2[Q:3/8=36] | %385
[Q:3/8=42] [D,G,]2 z z z/ .[B,,G,]/.[C,A,]/.[D,B,]/ [_E,C]3 | %386
 [D,B,]2 z z z/ .[G,B,]/.[A,C]/.[B,D]/ [C_E]3 | %387
 [B,D]2 z z z/[K:treble] .[B,G]/.[CA]/.[DB]/ [_Ec]3 | [DB]3"_cresc." ([c_e]3 [Bd]3 | %389
 [c_e]3 [Bd]3) ([cea]3 |!p! [Bdg]3"_dimin." [cf]3 [Be]3 | %391
!pp![Q:3/8=41]"_cresc." [FAd]3 [EGc]3)[Q:3/8=40] .[FB]/.[G^c]/.[Ad]/.[Ge]/[Q:3/8=38].[Ff]/.[FB]/ | %392
!p![Q:3/8=36] !trill(!Tc6[Q:3/8=42][Q:3/8=36][Q:3/8=42] e2- e/>c/ | %393
 G3- G2 (.^F/.G/[Q:3/8=41] .^G/.A/[Q:3/8=40]._B/.=B/[Q:3/8=39].c/.^c/) | %394
[Q:3/8=38] !trill(!Td6[Q:3/8=42][Q:3/8=36][Q:3/8=42] f2- f/>d/ | %395
 G3- G2 (.G/.A/[Q:3/8=41] ._B/.=B/[Q:3/8=40].=c/.^c/[Q:3/8=39].d/.^d/)[Q:3/8=38] | %396
[Q:3/8=42]{/E} e3[Q:3/8=38][Q:3/8=42]{/F} f3[Q:3/8=38][Q:3/8=42]{/G} g3 | %397
[Q:3/8=40] (^g[Q:3/8=42] a2-) a a2-!>(! a[Q:3/8=41]{/=g} (f/e/f/d/)!>)! | %398
!p! c[Q:3/8=42]{/d}(c/>B/c/>e/) G3-[Q:3/8=40] (G/4A/4G/4^F/4[Q:3/8=36] (3G/4A/4B/4[Q:3/8=32] (3c/4d/4e/4 =f/)z/4B/4 | %399
[Q:3/8=42] (([Fd]3 [Ec]/))[Q:3/8=41](G/^F/G/A/G/[Q:3/8=40] =F/E/G/F/[Q:3/8=39]E/D/)[Q:3/8=30] | %400
[Q:3/8=38] .C/[Q:3/8=42].[G,C]/.[CE]/.[G,C]/.[CE]/.[G,C]/ .[CE]/.[G,C]/.[CE]/.[G,C]/.[CE]/.[G,C]/[Q:3/8=42] .[CE]/.[G,C]/.[CE]/.[G,C]/.[CE]/.[G,C]/[Q:3/8=36][Q:3/8=32] | %401
"^leggieramente."[Q:3/8=42] z/4 B/4d/4c/4 e/4d/4f/4e/4 g/4f/4a/4g/4 b/4a/4c'/4b/4 d'/4c'/4e'/4d'/4 c'/4b/4a/4g/4[Q:3/8=41] ^f/4g/4a/4g/4[Q:3/8=40] =f/4e/4d/4c/4[Q:3/8=39] B/4c/4e/4[Q:3/8=30]c/4 | %402
[Q:3/8=38] .B/[Q:3/8=42] .[G,B,]/.[B,F]/.[G,B,]/.[B,F]/.[G,B,]/ .[B,F]/.[G,B,]/.[B,F]/.[G,B,]/.[B,F]/.[G,B,]/[Q:3/8=42] .[B,F]/.[G,B,]/.[B,F]/.[G,B,]/.[B,F]/.[G,B,]/[Q:3/8=36][Q:3/8=32] | %403
"^leggieramente."[Q:3/8=42] z/4 B/4d/4c/4 e/4d/4f/4e/4 g/4f/4a/4g/4 b/4a/4c'/4b/4 d'/4^c'/4e'/4d'/4 f'/4e'/4d'/4=c'/4[Q:3/8=41] b/4c'/4^c'/4d'/4[Q:3/8=40] =c'/4b/4a/4g/4[Q:3/8=39] ^f/4g/4a/4=f/4 | %404
[Q:3/8=38] ^d e2{/e} c'3- c'/.b/.a/.g/[Q:3/8=41].^f/.e/[Q:3/8=42] | %405
[Q:3/8=40] (e d2-) d/ddd/ (3.d/.^c/.d/ (3._e/.=e/.=f/ .^f/.g/[Q:3/8=42] | %406
 (3.A/.^G/.A/ ._B/4.=B/4.c/4.^c/4 (3.d/.^d/.e/ (!>!e =D2-) D/[Q:3/8=41](3E/4D/4^C/4[Q:3/8=40] (3D/4E/4^F/4[Q:3/8=39] (3=G/4A/4B/4[Q:3/8=38] =c/z/4[Q:3/8=36]F/4 | %407
[Q:3/8=38] (([CA]3 [B,G]))!pp![Q:3/8=40] (.G.G) (G^FG)[Q:3/8=42][Q:3/8=41] | %408
"_cresc." (G^F.G/.G/) z/ G/z/F/z/G/ z/ x/ z/ x/ z/ [_B^c]/ | %409
!>(! [_B^c]3- [Bc]2- [Bc]/!>)![Bc]/ z/ [Bc]/z/d/[Q:3/8=39]z/e/ | %410
!p! (e3 f)!pp![Q:3/8=40] (.F.F) (FEF) |"_cresc." (FE.F/.F/) z/ F/z/E/z/F/ z/ x/ z/ x/ z/ [_AB]/ | %412
!>(! [_AB]3- [AB]2- [AB]/!>)![AB]/[Q:3/8=39] z/ [AB]/z/c/[Q:3/8=38]z/d/ |!p![Q:3/8=40] e3 d3 c3 | %414
 B2 z z (AB c2[Q:3/8=39] ^F |[Q:3/8=38] A[Q:3/8=40]G/) z/ z (BAB dc[Q:3/8=39]^F | %416
[Q:3/8=40] G) z/[Q:3/8=39] (d/c/^F/ G) z/[Q:3/8=38] (d/c/^F/ G) z/[Q:3/8=37] (d/c/^F/) | %417
[Q:3/8=44]!p! !fermata!TG4[Q:3/8=48][Q:3/8=52] x4[Q:3/8=50][Q:3/8=44] G/4^F/4G/4[Q:3/8=48]D/4E/4F/4[Q:3/8=52]G/4A/4G/4[Q:3/8=56]F/4G/4A/4[Q:3/8=60]B/4c/4B/4A/4B/4c/4d/4e/4d/4^c/4d/4 | %418
 e/4^f/4g/4a/4g/4f/4g/4a/4b/4=c'/4b/4a/4b/4c'/4d'/4c'/4b/4a/4 g/4a/4g/4^f/4g/4a/4b/4c'/4b/4a/4b/4c'/4d'/4c'/4b/4a/4 g/4a/4g/4^f/4g/4a/4b/4"_cresc."c'/4b/4a/4b/4c'/4d'/4e'/4d'/4^c'/4d'/4e'/4^f'/4e'/4d'/4^c'/4 | %419
 b/4c'/4b/4a/4b/4c'/4d'/4e'/4d'/4^c'/4d'/4e'/4f'/4e'/4d'/4=c'/4[Q:3/8=43]!mp! b/4[Q:3/8=59]c'/4^c'/4d'/4[Q:3/8=43]!p!f/4[Q:3/8=59]g/4^g/4a/4[Q:3/8=42]d/4[Q:3/8=58]_e/4=e/4f/4[Q:3/8=42]B/4[Q:3/8=58]c/4^c/4d/4[Q:3/8=54] G/4"_cresc."^G/4A/4^A/4[Q:3/8=50]B/4=c/4^c/4d/4[Q:3/8=46]^d/4e/4f/4^f/4[Q:3/8=42]=g/4[Q:3/8=40]^g/4[Q:3/8=44]!mp!"_diminuendo." .b.a[Q:3/8=40].=g.=f[Q:3/8=36].e.=d | %420
!p![Q:3/8=38] !trill(!Tc6[Q:3/8=42][Q:3/8=36][Q:3/8=42] e2- e/>c/ | %421
 G3- G2 (.^F/.G/[Q:3/8=41] .^G/.A/[Q:3/8=40]._B/.=B/[Q:3/8=39].c/.^c/) | %422
[Q:3/8=38] !trill(!Td6[Q:3/8=42][Q:3/8=36][Q:3/8=42] g2-[Q:3/8=40] g/4>(f/4[Q:3/8=36]e/8d/8=c/8B/8 | %423
[Q:3/8=42] .A) G2- .G2 (.G/.A/[Q:3/8=41] ._B/.=B/[Q:3/8=40].=c/.^c/[Q:3/8=39].d/.^d/) | %424
[Q:3/8=40] (11:12:11(e/4f/4e/4^d/4e/4c/4B/4c/4[Q:3/8=39]c'/4b/4c'/4)[Q:3/8=40] (11:12:11(f/4g/4f/4e/4f/4c/4B/4c/4[Q:3/8=39]c'/4b/4c'/4)[Q:3/8=40] (11:12:11(g/4a/4g/4^f/4g/4c/4B/4c/4[Q:3/8=38]c'/4b/4c'/4) | %425
!<(! ^g/[Q:3/8=42]aa!<)!!f!aaaa/-"_dim." (a/e/[Q:3/8=40]{/=g}f/e/[Q:3/8=38]f/d/)[Q:3/8=41] | %426
!p![Q:3/8=40] (c/4d/4c/4B/4) z/4!p!"_cresc." c/4z/4d/4z/4e/4z/4f/4[Q:3/8=39] z/4 g/4z/4a/4z/4b/4z/4c'/4[Q:3/8=38]z/4d'/4z/4[Q:3/8=22]e'/4[Q:3/8=18][Q:3/8=38]{d'e'} .f' z[Q:3/8=37] .B | %427
 .[Ec][Q:3/8=40]!pp!(GF EDC) (B,/C/[Q:3/8=39]B,/C/[Q:3/8=38]D/C/) | %428
[Q:3/8=42] !trill(!Tz2 z ^F3 !trill(!T=F3 | !trill(!Tz2 z E3 !trill(!TF3 | %430
"^"[Q:3/8=39]!<(! TA[Q:3/8=36][Q:3/8=38] Tc[Q:3/8=36][Q:3/8=37] Tf[Q:3/8=36]!<)![Q:3/8=36] a[Q:3/8=40] [ac']2-!>(! [ac'][Q:3/8=41]([gb]/[fa]/[eg]/!>)![df]/) | %431
[Q:3/8=42] .[ce]/([B^d]/[ce]/)([d^f]/[eg]/[ce]/) z/ ([Bd]/[ce]/)([df]/[eg]/[ce]/)[Q:3/8=41] z/ ([^A^c]/[B=d]/)([ce]/[Q:3/8=40][d=f]/[Bd]/) | %432
[Q:3/8=38] =c[Q:3/8=40] z z z2 z z2[Q:3/8=38] z[Q:3/8=39] | %433
 z .^F.A .d.^f.a[Q:3/8=40] !trill(!T[gd']3[Q:3/8=36][Q:3/8=40][Q:3/8=36] | %434
[Q:3/8=38] z .E.G .c.e.g[Q:3/8=40] !trill(!T[=fc']3[Q:3/8=36][Q:3/8=40][Q:3/8=36] | %435
[Q:3/8=38]"_cresc." [ac']/[Q:3/8=40][af'][af'][af']/- [af']/[af'][af'][af']/-!f![Q:3/8=39] [af']/[af'][ge'][fd']/ | %436
[Q:3/8=40] .[ec']/([^d^f]/[eg]/)([^Fd]/[Ge]/[Ec]/)[Q:3/8=39] z/[K:bass] ([^D^F]/[EG]/)([^F,D]/[G,E]/[E,C]/)[Q:3/8=38] z/ ([^CE]/[=D=F]/)([E,C]/[Q:3/8=37][=F,D]/[D,B,]/) | %437
!mp![Q:3/8=38] [E,=C]/[Q:3/8=40]G,/E,/G,/E,/G,/ E,/G,/E,/G,/E,/G,/[Q:3/8=40] E,/G,/E,/G,/E,/G,/[Q:3/8=36][Q:3/8=36] | %438
[Q:3/8=40]"^\n"!p! (B,DF- FED[Q:3/8=39] CB,[Q:3/8=38]D) | %439
!mp! [E,C]/[Q:3/8=40]G,/E,/G,/E,/[Q:3/8=36]G,/[Q:3/8=40] E,/G,/E,/G,/E,/[Q:3/8=36]G,/[Q:3/8=40] E,/G,/E,/G,/[Q:3/8=36]E,/G,/ | %440
[Q:3/8=40]!p! (B,DF- FED[Q:3/8=39] CB,[Q:3/8=38]D) | %441
!mp![Q:3/8=40] [E,C]/G,/E,/G,/[Q:3/8=36]E,/G,/[Q:3/8=40] B, F2-[Q:3/8=39] FD[Q:3/8=38]B, | %442
!mp![Q:3/8=40] [E,C]/G,/E,/G,/[Q:3/8=36]E,/G,/[Q:3/8=40] B, F2-[Q:3/8=39] F(E/D/[Q:3/8=38]C/B,/) | %443
[Q:3/8=40] D6- D[Q:3/8=39]D[Q:3/8=38]D |!p![Q:3/8=39] (D3[Q:3/8=38][Q:3/8=40] C2) z z2 z | %445
[K:treble]!pp![Q:3/8=38] (([DF]3[Q:3/8=37][Q:3/8=40] [CE]2)) z z2 z | %446
[Q:3/8=37]"_cresc." [FA]3[Q:3/8=35] [EG]3[Q:3/8=33] [DF]3[Q:3/8=30] | %447
[Q:3/8=32] (([G,-B,F]3!p![Q:3/8=31] [G,CE]/))(B,/C/)(^D/E/)[Q:3/8=30](^F/ G/)[Q:3/8=29]!>(!(B/c/)[Q:3/8=28](^d/e/)[Q:3/8=26].g/!>)! | %448
!pp! (([fb]3 [ec']2)) z z2 z |] %449
[K:G][M:2/2][Q:1/4=116]"^Allegretto."[Q:1/2=92]!p!"^RONDO."{/e} (d^cde | .d2) (D2 E2 F2 | G4 BAGA | %452
 B2 G2 ^c2 A2) | d4!>(!{/e} (d^cde!>)! |!p! .d2) (D2 E2 F2 | G4 BAGA | B2 G2 c2 A2 | %457
 G2) z2!<(! (g2 f2!<)! | =f2) e2!f! ._e2!>(! .e2 | (_e2!>)! d2)!p! (=ed^cd) | (B2 d2) (ed^cd) | %461
 B2 z2!<(! (g2 f2!<)! | =f2) e2!f! ._e2!>(! .e2 | (_e2!>)! d2)!p! (=ed^cd) | (B2 d2) (ed^cd) | %465
 B2 z2 z4 |!p! (3z bc' (3d'c'b (3c'ab (3c'ba | (3bga (3bag (3fed (3cBA | %468
 (3Gd^c (3dBA (3Ge^d (3ecG | (3F=d^c (3dAF D2 z2 |!p! (3z bc' (3d'c'b (3c'ab (3c'ba | %471
 (3bga (3bag (3fed (3cBA | (3GFG (3ABc (3dD^C (3DEF | G2 z2!mp!"_cresc." (B,GA,A | %474
 [B,G]B[=CG]c [^CG_B]^c!f![CGB]c) |!>(! ([^CG_B]^c[DG=B]!>)!d)!p! (edcd) | (B2 d2) (ed^cd) | %477
 B2 z2!p!"_cresc." (GgAg | [GB]g[Gc]g!f! [G_B^c]g[GBc]g |!>(! [G_B^c]g[G=Bd]!>)!g)!p! (3FAd(3fdA | %480
 (3GBd(3gdB (3FAd(3fdA | (3GBd(3gdB!p! (c'b^ab) | (g2 b2) (c'b^ab) | (g2 b2)!p! (3^cea(3^c'ae | %484
 (3dfa(3d'af (3^cea(3^c'ae | (3dfa(3d'af!p!"_cresc." (ba^ga) | (=gf^ef) (f=e^de) | %487
 (fe^de)!p! (ba^ga) | (=gf^ef) (f=e^de) | (fe^de) (fede) | (fe^de) (fede) | A2 z2 (3z AB (3^cBA | %492
 (3z de (3fed (3z AB (3^cBA | (3z de (3fed (3z AB (3^cBA | (3z de (3fed (3ge^c (3GE^C | %495
 (3DFD (3A,F,D (3z AB (3^cBA | (3z de (3fed (3ge^c (3GE^C | (3DFD (3A,F,D (3z AB (3^cBA | %498
 (3z de (3fed (3ge^c (3GE^C | (3DFA (3dfa (3ge^c (3GE^C | (3DFA (3dfa (3ge^c (3GE^C | %501
!p! (3DFD (3A,AF (3DdA (3FDd | (3Ffd (3AFd (3Aaf (3dAa |"_cresc." (3dd'd (3d'dd' (3dd'd (3d'dd' | %504
 (3dd'd (3d'dd' (3dd'd (3d'dd' | (3dd'd (3d'dd' (3b^c'd' (3gab |!p! (3efg (3Bfe (3Aed (3Gd^c | %507
"_cresc." (3dd'd (3d'dd' (3dd'd (3d'dd' | (3dd'd (3d'dd' (3dd'd (3d'dd' | %509
!f! (3dd'd (3d'dd' (3dd'd (3d'dd' |!p! (3(^c'e'd') (3(^gba) (3(^e=gf) (3(^c=ed) | %511
!f! (3dd'd (3d'dd' (3dd'd (3d'dd' |!p! (3(^c'e'd') (3(^gba) (3(^e=gf) (3(^c=ed) | %513
"_dim." (3dd'd (3d'dd' (3dd'd (3d'd!pp!d' | (3dd'd (3d'dd' (3dd'd (3d'dd' | %515
!p! [dd']2 z2{/e} (d^cde | .d2) (D2 E2 F2) | G4 (BAGA) | (B2 G2 ^c2 A2) |!p! d2 z2{/e} (d^cde | %520
 .d2) (D2 E2 F2) | G4 (BAGA) | (B2 G2 c2 A2) | G2"_cresc." z2 ([Bg]2 [cf]2 | %524
 [d=f]2 [ce]2)!f! .[c_e]2!>(! .[ce]2 | (_e2!>)! d2)!p! (=ed^cd) | (B2 d2) (ed^cd) | %527
 B2 z2"_cresc." ([Bg]2 [=cf]2 | [d=f]2) [ce]2!f! .[c_e]2!>(! .[ce]2 | %529
 ([c_e]2!>)! [Bd]2)!p! (=ed^cd) | B2 d2 ed^cd | B2 z2 z4 | (3z _bc' (3d'c'b (3c'ab (3c'ba | %533
 (3_bga (3bag (3^f_ed (3c_BA | (3Gd^c (3d_BA (3G=e^d (3ecG | (3^F=d^c (3dAF D2 z2 | %536
 z4[K:bass] (D^CD_E | D2) (D,2 =E,2 ^F,2 | G,4) (_B,A,G,A,) | =B,2 G,2[K:treble]!f! (g^fg_a | %540
 g2) (G2 A2 B2) | c4 _edcd | (_e2 c2 =f2 d2 | g4 _b_aga | _b2 g2 c'2 _a2 | d'2 _b2 _e'2 ^f2 | %546
!>(! g4 d4!>)! |!p! _e2) z2 _e'4- | e'2 z2 _e4- | _e2 z2 e4- | e6 =d2 | %551
!p! [_EG_e]2 z2{/c'} (_b=abc' | ._b2) ([D_B]2 [_Ec]2 [=Fd]2 | .[G_e]2) z2{/_a} (g^fg_a | %554
 .g2) ([=B,G]2 [C=A]2 [D=B]2 | .[_Ec]2) z2 c'4- | c'2 z2 c4- | c2 z2 c4- | c6 =B2 | %559
 [C_Ec]2 z2!p!{/a} (g^fg_a | .g2) ([=B,G]2 [C=A]2 [DB]2 | .[_Ec]2) z2{/_d} (c=Bc_d | %562
 .c2) ([ec']2 [=fd']2 [ge']2 |!f! .[_a=f']2) z2 [=ff']4- | [ff']2 z2 [=F=f]4- | f2 z2 =f4- | %566
 =f2 z2{/_e'} (_d'c'd'_e' | ._d'2) z2 _e4- | e2 z2{/d'} (c'=bc'=d' | .c'2) z2 d4- | d2 z2 [Gg]4- | %571
 [Gg]2 z2 [Gg]4- | g2 z2 g4- |"_decresc." g6 [_Bg]2 |!p! [^FA^f]2 z2 d'4- | d'6 ^c'2 | d'2 z2 d4- | %577
 d6 [^cg]2 | [Fdf]2 z2 z4 | z8 | z8 | z4!p! ([dd'][^c^c'][dd'][ee'] | .[dd']2) ([Dd]2 [Ee]2 [Ff]2 | %583
 [Gg]4) ([Bb][Aa][Gg][Aa]) | ([Bb]2 [Gg]2 [^c^c']2 [Aa]2) | [dd']4 ([dd'][^c^c'][dd'][ee'] | %586
 .[dd']2) ([Dd]2 [Ee]2 [Ff]2 | [Gg]4) ([Bb][Aa][Gg][Aa]) | ([Bb]2 [Gg]2 [cc']2 [Aa]2) | %589
 [Gg]2 z2!p! (3G"_cresc."Bg (3Gcg | (3Gd=f (3Gce!p! (3G!>(!c_e (3Ace | %591
 (3c_ec!>)! (3BdB!p! (=ed^cd) | (B2 d2) (ed^cd) | B2 z2!p!"_cresc." (3Bag (3cgf | %594
 (3dg=f (3Gfe!p! (3c!>(!f_e (3cfe | (3c=f_e!>)! (3Bed!p! (=ed^cd) | (B2 d2) (ed^cd) | B2 z2 z4 | %598
 (3z!p! bc' (3d'c'b (3c'ab (3c'ba | (3bga (3bag (3fed (3cBA | (3Gd^c (3dBA (3Ge^d (3ecG | %601
 (3F=d^c (3dAF D2 z2 | (3z!p! bc' (3d'c'b (3c'ab (3c'ba | (3bga (3bag (3fed (3cBA | %604
 (3GFG (3ABc (3dD^C (3DEF | (3GgG (3gGg"_cresc." (3GgG (3gGg | (3GgG (3gGg!f! (3GgG (3gGg | %607
!>(! (3GgG (3g!>)!Gg!p! (ed^cd) | (B2 d2) (ed^cd) | (3[DGB]gG"_cresc." (3gGg (3GgG (3gGg | %610
 (3GgG (3gGg (3GgG (3gGg |!f!!>(! (3GgG (3g!>)!Gg!p! (3FAd(3fdA | (3GBd(3gdB (3FAd(3fdA | %613
 (3GBd(3gdB!p! (c'b^ab) | (g2 b2) (c'b^ab) | (g2 b2)!p! (3Bdg(3bgd | (3ceg(3c'ge (3Bdg(3bgd | %617
 (3ceg(3c'ge!p! (=f'e'^d'e') | (c'2 e'2) (=f'e'^d'e') | (c'2 e'2)"_cresc." (=f'e'^d'e' | %620
 =d'c'bc' ba^ga | =gf^ef) (=e'd'^c'd' | =c'b^ab) (b=a^ga) | (ba^ga)"_cresc." (e'd'^c'd' | %624
 =c'b^ab) (b=a^ga) | (ba^ga) (baga) | (ba^ga) (baga) | d2 z2 (3z de (3fed | %628
 (3z ga (3bag (3z de (3fed | (3z ga (3bag"_cresc." (3z de (3fed | (3z ga (3bag (3c'af (3cAF | %631
 (3GBG (3DB,G (3z DE (3FED | (3z GA (3BAG (3cAF[K:bass] (3CA,F, | %633
 (3G,B,G, (3D,B,,G, (3z D,E, (3F,E,D, | (3z G,A, (3B,A,G, (3CA,F, (3C,A,,F,, | %635
 (3G,,B,,D, (3G,B,D (3CA,F, (3C,A,,F,, | (3G,,B,,D, (3G,B,D (3CA,F, (3C,A,,F,, | %637
!p! (3G,,B,G, (3D,B,,B, (3D,DB, (3G,D,D |[K:treble] (3G,GD (3B,G,G (3B,BG (3DdB | %639
"_cresc." (3GgG (3gGg (3GgG (3gGg | (3GgG (3gGg (3GgG (3gGg | (3GgG (3gGg (3efg (3cde | %642
!p! (3ABc (3EBA (3DAG (3CGF |"_cresc." (3GgG (3gGg (3GgG (3gGg | (3GgG (3gGg (3GgG (3gGg | %645
 (3GgG (3gGg (3GgG (3gGg | (3GgG (3gGg (3GgG (3gGg | (3GgG (3gGg (3GgG (3gGg | %648
 (3GgG (3gGg (3GgG (3gGg | (3GgG (3gGg (3GgG (3gGg | (3GgG (3(g^c_B (3gd=B (3ge_B | %651
 (3gd!f!=B)!p!"_cresc." (3gGg (3GgG (3gGg | (3GgG (3(g^c_B (3gd=B (3ge_B | %653
 (3gd=B) (3g^c_B (3gd=B (3ge_B | (3gdB (3ge_B (3gd=B (3ge_B | [=Bdg]2 z2 (G2 F2 | %656
 =F2 E2) ._E2 .E2 | (_E2 D2) (^C2 =C2 | B,2) z2 z4 | z2 z G .c2 .c2 | (c2 B)E .A2 .A2 | %661
 (A2 G) z"_cresc." ([dd']2 [^c^c']2 | [=c=c']2 [Bb]2) .[_B_b]2 .[Bb]2 | %663
 ([_B_b]2 [Aa]).[Dd] .[Gg]2 .[Gg]2 | ([Gg]2 [Ff]).[Bb] .[ee']2 .[ee']2 | %665
 ([ee']2 [dd']).[Gg] .[cc']2 .[cc']2 | [cc']7/2 D/ .c2 .c2 | z2 z z/ d/ .c'2 .c'2 | %668
 c'7/2 x/ x2 x2 | z2 z z/ d/ .c'2 .c'2 | c'7/2 x/ x2 x2 | c7/2 (D/"_cresc." ^c2) c2 |!mf! ^c8- | %673
 !fermata!c4!p!{/e} d^cde | d2 (.[F,D]2 .[G,E]2 .[A,F]2) | [B,G]4 z4 | %676
 z4[Q:1/4=80]"^Adagio.\n\n"[Q:1/2=70] (BA^GA) | %677
[Q:1/2=65] (.[B,B]2 .[B,G]2[Q:1/2=60] .[^CG^c]2 .[CGA]2) | [DFAd]4 z4 | %679
 z4[Q:1/2=92]"^Tempo Ⅰ．"{/e} (d^cde |"_cresc." d2) (.[F,CD]2 .[G,CE]2 .[A,CF]2) | [G,B,G]4 z4 | %682
 z4[Q:1/4=80]"^Adagio.\n"!f![Q:1/2=70] (BA!f!^GA) |[Q:1/2=65] (.B2 .=G2)[Q:1/2=60] c4 | %684
"_cresc." z4 [DFA]4 | [DGd]8 |[Q:1/2=70] z4!p! (BA^GA) |[Q:1/2=65] (.B2 .=G2)[Q:1/2=60] c4 | %688
[Q:1/2=70] z4 [DFA]4 |[Q:1/2=65] z8[Q:1/2=60] |[Q:1/2=40] z8[Q:1/2=70] |"_cresc." z8 | %692
[Q:1/2=144] z4[Q:1/4=288]"^Presto." e'd'^c'd' |!f! ed^cd e'd'^c'd' | ed^cd e'd'^c'd' | ed^cd edcd | %696
 ed^cd edcd | B2 z2 z2 (^C2 | [^F,D]2) z2 =ed^cd | B2 z2 z2 ([G,^C]2 | [^F,D]2) z2 =e'd'^c'd' | %701
 b2 z2!p!"_cresc." z2 .[G,^C]2 | z2 .[^CG]2 z2 .[G^c]2 | z2 .[^cg]2 z2 .[g^c']2 | %704
 z2 .[g^c']2 z2 [gc']2 |!f! [^f=e']d'^c'd' e'd'c'd' | e'd'^c'd' e'd'c'd' | e'd'^c'd' e'd'c'd' | %708
 e'd'^c'd' e'd'c'd' |!p! b2 z2 (ed^cd | B2) z2 (ED^CD | B,2) z2 z4 | z8 | z8 | z8 | %715
 z4!ff! .[=cfa=c']2 .[cfac']2 | z4 .[F=cf]2 .[Fcf]2 | z4 .[GBdg]2 .[GBdg]2 |"_1" z8 | %719
 z4!ff! .[DGBd]2 .[DGBd]2 |"_1" z8 | z4!p! [B,DGB]2 z2 | z4[K:bass]!pp! [D,G,B,D]2 z2 | %723
[Q:1/2=120] z4 [B,,D,G,B,]2 z2 | !fermata!z8 |] %725
V:2
 z/ | .[G,B,D]2 z2 | z4 |: z4 | .[G,,G,] z .[G,,G,] z | .[G,,G,] z z2 | .[G,,G,] z .[G,,G,] z | %7
 .[G,,G,] z z2 | .[G,,G,] z .[E,,E,] z | .[A,,A,] z z2 | .[A,,A,] z .[A,,,A,,] z | .[D,,D,] z z2 | %12
 =F3 E/D/ | =C/^C/D/A,/ =C/_B,/A,/G,/ | =F,2 z2 | .[=F,,=F,] z .[F,,F,] z | .[=F,,=F,] z z2 | %17
 .[=F,,=F,] z .[F,,F,] z | .[=F,,=F,] z z2 | .[=F,,=F,] z .[D,,D,] z | .[G,,G,] z z2 | %21
 .[G,,G,] z .[G,,,G,,] z | .[C,,C,] z z2 | .[C,C] z .[A,,A,] z | .[D,D] z z2 | %25
 .[D,D] z .[D,,D,] z | .[G,,G,] z z2 | .[D,D] z .[D,,D,] z | .[G,,G,] z z2 | .[D,D] z .[D,,D,] z | %30
 .[G,,G,] z z2 | D/^D/E/B,/ =D/C/B,/A,/ | G,/^A,/B,/F,/ =A,/G,/F,/E,/ | %33
 D,/^D,/E,/B,,/ =D,/C,/B,,/A,,/ | G,,/^A,,/B,,/F,,/ =A,,/G,,/F,,/E,,/ | %35
 D,,/^D,,/E,,/B,,,/ =D,,/C,,/B,,,/A,,,/ | G,,,/F,,,/G,,,/A,,,/ _B,,,/=B,,,/C,,/^C,,/ | %37
 D,,/^C,,/D,,/E,,/ F,,/D,,/E,,/F,,/ | G,,/F,,/G,,/A,,/ _B,,/=B,,/C,/^C,/ | %39
!ped! .D,/(D,/F,/A,/[K:treble] .D/)(D/F/A/ | .d/)(d/A/F/[K:bass] .D/)(D/A,/F,/!ped-up! | %41
!ped! .D,/)(D,/F,/A,/[K:treble] .D/)(D/F/A/ | .d/)(d/A/F/[K:bass] .D/)(D/A,/F,/ | %43
 .D,/)(D/A,/F,/ .D,/)(D,/A,,/F,,/)!ped-up! |!ped! D,,4- | !fermata!D,,7/2!ped-up! z/ | %46
 .[G,B,D]2 z2 | z4 | z4 | .[G,,G,] z .[G,,G,] z | .[G,,G,] z z2 | .[G,,G,] z .[G,,G,] z | %52
 .[G,,G,] z z2 | .[G,,G,] z .[E,,E,] z | .[F,,F,] z z2 | .G z .G z | .F z z2 | %57
 .[G,,G,] z .[E,,E,] z | .[F,,F,] z z2 | .G, z .G, z | .F, z z2 | .G z .G z | .F z z2 | %63
 .[G,,,G,,] z .[G,,,G,,] z | .[F,,,F,,] z z2 | z4 |!p! .B,,.[F,B,^D].[F,B,D].[F,B,D] | %67
 .B,,.[F,B,^D].[F,B,D].[F,B,D] | .F,,.[F,^CE].[F,CE].[F,CE] | .^A,,.[F,^CE].F,,.[F,CE] | %70
 .B,,.[F,B,^D].[F,B,D].[F,B,D] | .B,,.[F,B,^D].[F,B,D].[F,B,D] | .F,,.[F,^CE].[F,CE].[F,CE] | %73
!p!!<(! B,,/B,/=A,/=G,/ F,/E,/=D,/!mf!^C,/!<)! |!f! .B,, D,2 !tenuto!.^C, | .B,, D,2 !tenuto!.B,, | %76
 .^A,, F,2!f! F,- | F,G,/F,/ E,/D,/E,/^C,/ | .B,, D,2 !tenuto!.D, | .^C,!f!(E,/D,/ C,/D,/E,/C,/) | %80
 .D, F,2 !tenuto!.F, | .^E,!f!(^G,/F,/ E,/F,/G,/E,/) | .F, A,2 !tenuto!.A, | %83
 (A, B,,2) !tenuto!.G, | (G, A,,2) !tenuto!.F, | (F, G,,2) !tenuto!.E, | E,3 !tenuto!.D, | %87
 (D,^C,B,,^A,,) | .[B,,,B,,]!p!.[B,D].[B,D].[B,D] | .A,,.[A,^CE].[A,CE].[A,CE] | %90
 .D,.[DF].[DF].[DF] | .^C,.[^C^E^G].[CEG].[CEG] | .F,.[FA].[FA].[FA] | .^D,.[^DF].E,.[EG] | %94
 .^C,.[^CE].=D,.[=DF] | .C,.[B,D].^C,.[^CE] | .^A,,.[^A,^C].B,,.[B,D] | .E,,.E,.F,,.F, | %98
!p! z .F,.F,.F, | .F,.F,.F,.F, | z!<(! .F,.F,.F,!<)! |!p!!>(! .F,.F,.F,!>)!.F, |!pp! z .F,.F,.F, | %103
 .F,.F,.F,.F, | .F,.F,.F,.F, | .F,.F,.F,.F, | .F,.F,.F,.F, | .F,.F,.F,.F, | F,2 z2 | %109
 .[B,,,B,,]2 z2 | .[B,,,B,,]2 z2 | .B,,, z .D,, z |1 [G,,,G,,]2 z2 | z4 :|2 [G,,,G,,]2 z2 | z4 || %116
 z4 | .[G,,G,] z .[G,,G,] z | .[G,,G,] z z2 | .[G,,G,] z .[G,,G,] z | .[G,,G,] z z2 | %121
!ped! .[=F,,=F,] z .[F,B,D] z!ped-up! |!ped! .[_E,,_E,] z .[E,G,C] z!ped-up! | %123
!ped! .[D,,D,] z .[D,=F,B,] z!ped-up! |!ped! .[C,,_E,,G,,C,] z z2!ped-up! | .[C_EG] z .[CEG] z | %126
 .[C_EG] z z2 | .[C_EG] z .[CEG] z | .[C_EG] z z2 |!ped! .[_B,,_B,] z .[B,=EG] z!ped-up! | %130
!ped! .[A,,A,] z .[A,C=F] z!ped-up! |!ped! .[G,,G,] z .[G,_B,E] z!ped-up! | %132
!ped! .[=F,,=F,] z .[=F,A,C] z!ped-up! |!ped! .[_E,_E] z[K:treble] .[DAc] z!ped-up! | %134
[K:bass]!ped! .[D,D] z[K:treble] .[D=F_B] z!ped-up! | %135
[K:bass]!ped! .[C,C] z[K:treble] .[C_EA] z!ped-up! |[K:bass]!ped! .[_B,,D,=F,_B,]!ped-up! z z2 | %137
 z4 | _B,/^C/D/A,/ =C/B,/A,/G,/ | =F,/^F,/G,/D,/ =F,/_E,/D,/C,/ | %140
 _B,,/^C,/D,/A,,/ =C,/B,,/A,,/G,,/ | =F,,/^F,,/G,,/D,,/ =F,,/_E,,/D,,/C,,/ | %142
 B,,,/D,,/C,,/_E,,/ D,,/=F,,/E,,/G,,/ | =F,,/_A,,/G,,/F,,/ _E,,/D,,/C,,/B,,,/ | C,, z z2 | z4 | %146
 C/D/_E/B,/ D/C/_B,/_A,/ | G,/_A,/G,/^F,/ G,/=F,/_E,/D,/ | C,/D,/_E,/B,,/ D,/C,/_B,,/_A,,/ | %149
 G,,/_A,,/_B,,/A,,/ G,,/=F,,/_E,,/D,,/ | ^C,,/E,,/D,,/=F,,/ E,,/G,,/F,,/A,,/ | %151
 G,,/_B,,/A,,/G,,/ =F,,/E,,/D,,/^C,,/ | D,, z z2 | z4 | D,/E,/=F,/^C,/ E,/D,/=C,/_B,,/ | %155
 A,,/_B,,/C,/B,,/ A,,/B,,/A,,/G,,/ | ^F,,/A,,/G,,/_B,,/ A,,/C,/B,,/D,/ | %157
 C,/_E,/D,/C,/ _B,,/A,,/G,,/F,,/ | G,,/A,,/_B,,/A,,/ G,,/=F,,/_E,,/D,,/ | %159
 ^C,,/D,,/=E,,/D,,/ C,,/G,,/E,,/C,,/ | D,,/^F,,/A,,/F,,/ _B,,/G,,/_E,,/^C,,/ | %161
 D,,/F,,/A,,/F,,/ _B,,/G,,/_E,,/^C,,/ | D,,/F,,/A,,/F,,/ _B,,/G,,/_E,,/^C,,/ | %163
 D,,/F,,/A,,/F,,/ _B,,/G,,/_E,,/^C,,/ |!ped! .D,,/(D,,/F,,/A,,/ .D,/)(D,/F,/A,/ | %165
[K:treble] .D/)(D/F/A/ .d/)(d/A/F/ |[K:bass] .D/)(D/A,/F,/ .D,/)(D,/A,,/F,,/ | %167
 .D,,/)(D,,/F,,/A,,/ .D,/)D,/A,,/F,,/!ped-up! |!ped! .D,,/(D,,/F,,/A,,/ .C,/)(D,/F,/A,/ | %169
[K:treble] .C/)(D/F/A/ .c/)(c/A/F/ |[K:bass] .D/)(C/A,/F,/ .D,/)(C,/A,,/F,,/ | %171
 .D,,/)(D,,/F,,/A,,/ .C,/)C,/A,,/F,,/!ped-up! |!ped! D,,2[K:treble] F,2 | A,2 D2 | F2 A2 | %175
 c2 f2!ped-up! |[K:bass]!ped! D,,2[K:treble] [F,A,]2 | [A,D]2 [DF]2 | [FA]2 [Ac]2 | %179
 [cf]2 [fa]2!ped-up! |[K:bass]!ped! D,,2[K:treble] [A,C]2 | [DF]2 [FA]2 | [Ac]2 [cf]2 | %183
 [fa]2 [ac']2!ped-up! |!ped! [c'_e']2 z2 |[K:bass] .D,,2 z2!ped-up! |[K:treble]!ped! [c'_e']2 z2 | %187
[K:bass] .D,,2 z2!ped-up! |[K:treble]!ped! [c'_e']2 z2 |[K:bass] .D,,2 z2!ped-up! |!ped! .D,,2 z2 | %191
 z4!ped-up! |!ped! ._E,2 z2 | z4!ped-up! |!ped! .D,,2 z2 | z4!ped-up! | .G,,,2 z2 | z4 | z4 | %199
 .[G,,G,] z .[G,,G,] z | .[G,,G,] z z2 | .[G,,G,] z .[G,,G,] z | .[G,,G,] z z2 | %203
 .[G,,G,] z .[E,,E,] z | .[A,,A,] z z2 | .[A,,A,] z .[A,,,A,,] z | .[D,,D,] z z2 | %207
 .[C,C] z .[A,,A,] z | .[D,D] z z2 | .[D,D] z .[D,,D,] z | .[G,,G,] z z2 | .[C,C] z .[A,,A,] z | %212
 .[B,,B,] z z2 |[K:treble] .c z .c z | .B z z2 |[K:bass] .C z .C z | .B, z z2 | %217
 .[C,,C,] z .[C,,C,] z | .[B,,,B,,] z z2 |[K:bass] z4 |!p! .E,.[B,E^G].[B,EG].[B,EG] | %221
 .E,.[B,E^G].[B,EG].[B,EG] | .B,,.[B,FA].[B,FA].[B,FA] | .^D,.[B,FA].B,,.[B,FA] | %224
 .E,.[B,E^G].[B,EG].[B,EG] | .E,.[B,E^G].[B,EG].[B,EG] | .B,,.[B,FA].[B,FA].[B,FA] | %227
!p!!<(! E,/E/=D/=C/ B,/A,/=G,/!mf!F,/!<)! |!f! .E, G,2 !tenuto!.F, | .E, G,2 !tenuto!.E, | %230
 .^D, B,2!f! B,- | B,C/B,/ A,/G,/A,/F,/ |"_cresc." .E, G,2 !tenuto!.F, | .E, G,2 !tenuto!.G, | %234
 F,/A,/G,/B,/!ff! A,/C/B,/D/ | C/B,/A,/G,/ F,/E,/D,/C,/ | .B,,!p!.[G,B,D].G,,.[G,B,D] | %237
 .G,,.[G,B,D].[G,B,D].[G,B,D] | .D,.[A,CD].[A,CD].[A,CD] | .F,.[A,CD].D,.[A,CD] | %240
 .G,.[B,D].G,,.[G,B,D] | .G,,.[G,B,D].[G,B,D].[G,B,D] | .D,.[A,CD].[A,CD].[A,CD] | %243
!<(! G,,/G,/F,/E,/ D,/C,/B,,/!<)!!mf!A,,/ |!f! .G,, B,,2 !tenuto!.A,, | .G,, B,,2 !tenuto!.G,, | %246
 .F,, D,2!f! D,- | D,E,/D,/ C,/B,,/C,/A,,/ | .G,, B,,2 !tenuto!.B,, | %249
 .^A,,!f!(^C,/B,,/ A,,/B,,/C,/A,,/) | .B,, D,2 !tenuto!.D, | .^C,!f!(E,/D,/ C,/D,/E,/C,/) | %252
 .D, =F,2 !tenuto!.F, | (=F, G,,2) !tenuto!.E, | (E, ^F,,2) !tenuto!.D, | (D, E,,2) !tenuto!.C, | %256
 C,3 !tenuto!.B,, | (B,,A,,G,,F,,) | .[G,,,G,,]!p!.[G,B,].[G,B,].[G,B,] | %259
 .F,,.[F,^A,^C].[F,A,C].[F,A,C] | .B,,.[B,D].[B,D].[B,D] | .=A,,.[A,^CE].[A,CE].[A,CE] | %262
 .D,.[D=F].[DF].[DF] | .B,,.[B,D].=C,.[=CE] | .^A,,.[^A,^C].B,,.[B,D] | %265
 .^G,,.[^G,B,].=A,,.[=A,=C] | .F,,.[F,A,].=G,,.[=G,B,] | .C,,.C,.D,,.D, |!p! z .D,.D,.D, | %269
 .D,.D,.D,.D, | z!<(! .D,.D,.D,!<)! |!p!!>(! .D,.D,.D,!>)!.D, |!pp! z .D,.D,.D, | .D,.D,.D,.D, | %274
 .D,.D,.D,.D, | .D,.D,.D,.D, | .D,.D,.D,.D, | .D,.D,.D,.D, | D,2 z2 | .[G,,,G,,]2 z2 | %280
 .[G,,,G,,]2 z2 | .B,,, z .D,, z | [G,,,G,,]2 z2 | z4 | G,/^A,/B,/F,/ =A,/G,/F,/E,/ | %285
 D,/^D,/E,/B,,/ =D,/C,/B,,/A,,/ | G,,/^A,,/B,,/F,,/ =A,,/G,,/F,,/E,,/ | %287
 D,,/^D,,/E,,/B,,,/ =D,,/C,,/B,,,/A,,,/ | G,,,/F,,,/G,,,/A,,,/ _B,,,/=B,,,/C,,/^C,,/ | %289
 D,,/^C,,/D,,/E,,/ F,,/D,,/E,,/F,,/ | G,,/F,,/G,,/A,,/ _B,,/=B,,/C,/^C,/ | %291
!ped! .D,/(D,/F,/A,/[K:treble] .D/)(D/F/A/ | .d/)(d/A/F/[K:bass] .D/)(D/A,/F,/!ped-up! | %293
!ped! .D,/)(D,/F,/A,/[K:treble] .D/)(D/F/A/ | .d/)(d/A/F/[K:bass] .D/)(D/A,/F,/ | %295
 .D,/)(D/A,/F,/ .D,/)(D,/A,,/F,,/)!ped-up! |!ped! D,,4- | !fermata!D,,7/2!ped-up! z/ | [D,A,C]4 | %299
[K:treble] .A z .c z | .D z z2 | z4 |[K:bass] [D,A,C]4 | z4 | [G,,B,,D,G,]4 | z4 | .[D,A,C] z z2 | %307
 .[D,,D,] z z2 | .[G,,G,] z .[G,,G,] z | z4 |[K:bass] [D,A,C]4 |!ped! z4!ped-up! | [G,,B,,D,G,]4 | %313
!ped! z4!ped-up! | .[D,A,C] z z2 | .[D,,D,] z z2 | .[G,,G,] z .[G,,G,] z | z4 | .[D,A,C] z z2 | %319
 .[D,,D,] z z2 | .[G,,G,] z .[G,,G,] z | z4!ped! | .[D,A,C] z z2!ped-up!!ped! | %323
 .[D,,D,] z z2!ped-up! | .[G,,G,] z .[G,,G,] z | z4 | .[G,,,G,,] z .[G,,,G,,] z | z2 z z/ |] %328
[K:C][M:9/8]!p!!ped! .E,.G,.C .E,.G,.C!ped-up!!ped! .E,.G,.C!ped-up! | %329
!ped! .E,.G,.C .E,.G,.C .E,.G,.C!ped-up! |!ped! .F,.G,.D .F,.G,.D!ped-up!!ped! .F,.G,.D!ped-up! | %331
!ped! .F,.G,.D .F,.G,.D .F,.G,.B,!ped-up!!ped! | %332
 .[C,E,].G,.C!ped-up!!ped! .A,,.A,.C!ped-up!!ped! .E,,.[E,G,].[G,C]!ped-up! | %333
!ped! .F,,.[F,A,].[A,C]!ped-up!!ped! .F,,.[F,A,].[A,^C]!ped-up!!ped! .F,,.[F,A,].[A,D]!ped-up! | %334
!ped! .G,,.[G,=C].[CE]!ped-up!!ped! .G,,.[G,C].[CE]!ped-up!!ped! .G,,.[G,D].[DF]!ped-up! | %335
 .C,.G,.B, .[C,C](G,^F, =F,E,D,)!ped! |!p!{/C,,} !trill(!TC,6!ped-up!!ped! E,2- E,/>C,/!ped-up! | %337
!ped! G,, G,[CE]!ped-up!!ped! [CE][CE][CE]!ped-up!!ped! [CE][CE][CE]!ped-up!!ped! x/4 | %338
{/G,,} !trill(!TD,6!ped-up!!ped! F,2- F,/>D,/!ped-up! | %339
!ped! G,, G,D!ped-up!!ped! [DF][DF][DF]!ped-up!!ped! [DF][DF][DF]!ped-up! | %340
!ped! .B,,.[G,C].[CE]!ped-up!!ped! .A,,.[A,C].[CE]!ped-up!!ped! .G,,.[G,C].[CE]!ped-up! | %341
!ped! .^F,,.[A,C].[CD]!ped-up!!ped! .F,,.[A,C].[CD]!ped-up!!ped! .G,,.[G,B,].[B,D]!ped-up! | %342
!ped! .C,,.[C,E,].[E,A,]!ped-up!!ped! .D,,.[D,G,].[G,B,]!ped!!ped-up! .D,,.[D,A,].[A,C]!ped-up!!ped! | %343
 .G,,.[G,C].[CD] [G,B,]!ped-up!!ped! z z!ped-up!!ped! z2 z | %344
!ped! z2 _E!ped-up!!ped! (EDE)!ped-up!!ped! (EDE)!ped-up! | %345
!ped! (=E^DE)!ped-up!!ped! (EDE)!ped-up!!ped! (E=F^C)!ped-up! | %346
!ped! (^C3 D)!ped-up!!ped! z z!ped-up!!ped! z2 z!ped-up! | %347
!ped! z2 _D!ped-up!!ped! (DCD)!ped-up!!ped! (DCD)!ped-up! | %348
!ped! (D_D=D)!ped-up!!ped! (D_D=D)!ped-up!!ped! (D_EB,)!ped-up! | (C3 F,3 ^F,3) | %350
!ped! G,,G,G,!ped-up!!ped! G,G,G,!ped-up!!ped! G,G,G,!ped-up! | %351
!ped! G,,G,G,!ped-up!!ped! G,G,G,!ped-up!!ped! G,G,G,!ped-up! | %352
!ped! G,,!ped-up!!ped! G,2-!ped-up!!ped! [D,G,]!ped-up!!ped! G,2-!ped-up!!ped! G,!ped-up!!ped! G,2!ped-up! | %353
!ped! G,6 x2 !fermata!z2!ped-up! z x x8 x2!ped! x4 x x/!ped-up! | %354
!p!!ped! .E,.G,.C .E,.G,.C!ped-up!!ped! .E,.G,!ped-up!.C | %355
!ped! .E,.G,.C .E,.G,.C .E,.G,.C!ped-up! |!ped! .F,.G,.D .F,.G,.D!ped-up!!ped! .F,.G,.D!ped-up! | %357
!ped! .F,.G,.D!ped-up!!ped! .F,.G,.D!ped-up!!ped! .F,.G,.B,!ped-up! | %358
!ped! .[C,E,].G,.C!ped-up!!ped! .A,,.A,.C!ped-up!!ped! .E,,.[E,G,].[G,C]!ped-up! | %359
!p!!ped! .F,,.[F,A,].[A,C]!ped-up!!ped! .F,,!p!.[F,A,].[A,^C]!ped-up!!ped! .F,,!>(!.[F,A,].[A,D]!ped-up!!>)! | %360
!p!!ped! .G,,"_cresc.".[G,=C].[CE]!ped-up!!ped! .G,,.[G,C].[CE]!p!!ped-up!!ped! .G,,.[G,D]!p!.[DF]!ped-up! | %361
!ped! C,G,B,!ped-up!!ped! ([C,C]G,_E, C,G,,_E,,)!ped-up! | %362
!pp!!ped! (C,,/_E,,/G,,/).G,,/.G,,/.G,,/!ped-up!!ped! (C,,/E,,/G,,/).G,,/.G,,/.G,,/!ped-up!!ped! (C,,/E,,/G,,/).G,,/.G,,/.G,,/!ped-up! | %363
!ped! (C,,/_E,,/_A,,/).A,,/.A,,/.A,,/!ped-up!!ped! (C,,/E,,/A,,/).A,,/.A,,/.A,,/!ped-up!!ped! (C,,/E,,/A,,/).A,,/.A,,/.A,,/!ped-up! | %364
!ped! (_D,,/F,,/_A,,/).A,,/.A,,/.A,,/!ped-up!!ped! (D,,/F,,/A,,/).A,,/.A,,/.A,,/!ped-up!!ped! (D,,/F,,/A,,/).A,,/.A,,/.A,,/!ped-up! | %365
!ped!"_cresc." (_D,,/F,,/_B,,/).B,,/.B,,/.B,,/!ped-up!!ped! (D,,/F,,/B,,/).B,,/.B,,/.B,,/!ped-up!!ped! (D,,/F,,/B,,/).B,,/.B,,/.B,,/!ped-up! | %366
!f!!ped! (_E,,/_B,,/_D,/).D,/.D,/.D,/!ped-up!!ped! (=E,,/B,,/=E,/).E,/.E,/.E,/!ped-up!!ped! (F,,/_A,,/F,/).F,/.F,/.F,/!ped-up! | %367
!ped!"_dim." (_D,,/_D,/F,/).F,/.F,/.F,/!ped-up!!ped! (_E,,/C,/_E,/).E,/.E,/.E,/!p!!ped-up!!ped! (E,,/_B,,/D,/).D,/.D,/.D,/!ped-up! | %368
!ped! .[_A,,,_A,,]/._A,/.A,/.A,/.A,/.A,/ .A,/.A,/.A,/.A,/.A,/.A,/ .A,/.A,/.A,/.A,/.A,/.A,/!ped-up! | %369
!p! .[_A,C_E]/.[A,CE]/.[A,CE]/.[A,CE]/.[A,CE]/.[A,CE]/ .[A,CE]/.[A,CE]/.[A,CE]/.[A,CE]/.[A,CE]/.[A,CE]/ .[A,CE]/.[A,CE]/.[A,CE]/.[A,CE]/.[A,CE]/.[A,CE]/ | %370
 .[_B,_D_E]/ z/ z z z2 z z2 z | %371
!p!{G,_A,} ._B,/.A,/.G,/.F,/._E,/._D,/ .C,/._B,,/._A,,/.G,,/.F,,/._E,,/ .=D,,/.E,,/.F,,/.E,,/.G,,/.E,,/ | %372
!ped! .[_A,,,_A,,]/!ped-up!._A,/.A,/.A,/.A,/.A,/ .A,/.A,/.A,/.A,/.A,/.A,/ .A,/.A,/.A,/.A,/.A,/.A,/ | %373
!p! .[F,_A,CF]/.[F,A,C]/.[F,A,C]/.[F,A,C]/.[F,A,C]/.[F,A,C]/ .[F,A,C]/.[F,A,C]/.[F,A,C]/.[F,A,C]/.[F,A,C]/.[F,A,C]/ .[F,A,C]/.[F,A,C]/.[F,A,C]/.[F,A,C]/.[F,A,C]/.[F,A,C]/ | %374
 .[G,_B,C]/ z/ z z z2 z z2 z | %375
!p!{=E,F,} .G,/.F,/.E,/._D,/.C,/._B,,/ ._A,,/.G,,/.F,,/.E,,/._D,,/.C,,/ .=B,,,/.C,,/.D,,/.C,,/.E,,/.C,,/ | %376
!ped! .[F,,F,]/!ped-up! .F,/.F,/.F,/.F,/.F,/ .[F,_A,_D]/.[F,A,D]/.[F,A,D]/.[F,A,D]/.[F,A,D]/.[F,A,D]/ ._E,/.E,/.E,/.E,/.E,/.E,/ | %377
!ped! .[=D,,=D,]/!ped-up!.D,/.D,/.D,/.D,/.D,/ .[D,F,B,]/.[D,F,B,]/.[D,F,B,]/.[D,F,B,]/.[D,F,B,]/.[D,F,B,]/ .C,/.C,/.C,/.C,/.C,/.C,/ | %378
!ped! .[B,,,B,,]/!ped-up!.B,,/.B,,/.B,,/.B,,/.B,,/ .[B,,D,G,]/.[B,,D,G,]/.[B,,D,G,]/.[B,,D,G,]/.[B,,D,G,]/.[B,,D,G,]/ .[C,_E,G,]/.[C,E,G,]/.[C,E,G,]/.[C,E,G,]/.[C,E,G,]/.[C,E,G,]/ | %379
!p!!ped! .F,,/!ped-up!"_cresc.".[F,_A,_D]/.[F,A,D]/!ped-up!.[F,A,D]/.[F,A,D]/.[F,A,D]/!ped! .F,,/!ped-up!.[F,A,D]/.[F,A,D]/!ped-up!.[F,A,D]/.[F,A,D]/.[F,A,D]/!ped! .^F,,/!ped-up!.[^F,=A,C]/.[F,A,C]/.[F,A,C]/.[F,A,C]/!mf!.[F,A,C]/ | %380
 .G,,/.B,,/.D,/.G,/.B,/.D/!ped! (G^FG!ped-up!!ped! _A2!ped-up! F) | %381
 .G,,/.B,,/.D,/.G,/.B,/.D/!ped! (G^FG!ped-up!!ped! _A2 F-)!ped-up! | %382
!mp!!ped! F2 =F-!ped-up!!ped! F2 E-!ped-up!!ped! E2 _E!ped-up! | %383
!ped! D2 z!ped-up!!ped! D2 z!ped-up!!ped! C2 z!ped-up! |!pp! [G,,G,]2 z [G,,,G,,]2 z [G,,,G,,]2 z | %385
 G,,G,,G,, G,,G,,G,, G,,G,,G,, |!pp! G,,G,,G,, G,,G,,G,, G,,G,,G,, | G,,G,,G,, G,,G,,G,, z z ^F, | %388
!ped! G,,G,G,!ped-up!!ped!"_cresc." G,G,G,!ped-up!!ped! G,G,!ped-up!G, | %389
!ped! G,G,G,!ped-up!!ped! G,G,G,!ped-up!!ped! G,G,G,!ped-up! | %390
!p!!ped! G,G,G,!ped-up!!ped!"_dimin." G,G,,G,,!ped-up!!ped! G,,G,,G,,!ped-up! | %391
!pp!"_cresc." G,,.A,,/.B,,/.C,/.D,/ .E,/.F,/.G,/.A,/.B,/.C/ .D/.E/.F/.^C/.D/.D/ | %392
!p!!ped! .[=C,E,]/.[E,G,]/.[G,C]/.[E,G,]/.[C,E,]/.[E,G,]/ .[C,E,]/.[E,G,]/.[G,C]/.[E,G,]/.[C,E,]/.[E,G,]/ .[C,E,]/.[E,G,]/.[G,C]/.[E,G,]/.[C,E,]/.[E,G,]/!ped-up! | %393
!p!!ped! .[C,E,]/.[E,G,]/.[G,C]/.[E,G,]/.[C,E,]/.[E,G,]/ .[C,E,]/.[E,G,]/.[G,C]/.[E,G,]/.[C,E,]/.[E,G,]/ .[C,E,]/.[E,G,]/.[G,C]/.[E,G,]/.[C,E,]/.[E,G,]/!ped-up! | %394
!ped! .[B,,F,]/.[F,G,]/.[G,D]/.[F,G,]/.[B,,F,]/.[F,G,]/ .[B,,F,]/.[F,G,]/.[G,D]/.[F,G,]/.[B,,F,]/.[F,G,]/ .[B,,F,]/.[F,G,]/.[G,D]/.[F,G,]/.[B,,F,]/.[F,G,]/!ped-up! | %395
!ped! .[B,,F,]/.[F,G,]/.[G,D]/.[F,G,]/.[B,,F,]/.[F,G,]/ .[B,,F,]/.[F,G,]/.[G,D]/.[F,G,]/.[B,,F,]/.[F,G,]/ .[G,,F,]/.[F,G,]/.[G,B,]/.[F,G,]/.[G,,F,]/.[F,G,]/!ped-up!!ped!!ped-up! | %396
 .C,/.G,/.C/.G,/.E,/.C,/!ped! .A,,/.A,/.C/.A,/.F,/.C,/!ped-up!!ped! .E,,/.G,/.C/.G,/.E,/.C,/ | %397
!ped! .F,,/.[F,A,]/.[A,C]/.[F,A,]/.[A,C]/.[F,A,]/!ped-up!!ped! .F,,/.[F,A,]/.[A,^C]/.[F,A,]/.[A,C]/.[F,A,]/!ped-up!!ped! .F,,/.[F,A,]/.[A,D]/.[F,A,]/.[A,D]/.[F,A,]/!ped-up! | %398
!p!!ped! .G,,/.[G,C]/.[CE]/.[G,C]/.[CE]/.[G,C]/!ped-up!!ped! .G,,/.[G,C]/.[CE]/.[G,C]/.[CE]/.[G,C]/!ped-up!!ped! .G,,/.[G,D]/.[DF]/.[G,D]/.[DF]/.[G,D]/!ped-up! | %399
!ped! .C,/.G,/.B,/.G,/.B,/.G,/ .[C,C]/!ped-up!(G,/^F,/G,/A,/G,/ =F,/E,/G,/F,/E,/D,/)!ped! | %400
!p!{/C,,} !trill(!TC,6!ped-up!!ped! E,2- E,/>C,/!ped-up! | %401
!ped! .G,,/ .[G,C]/.[CE]/.[G,C]/.[CE]/.[G,C]/ .[CE]/.G,/.[CE]/.G,/.[CE]/.G,/ .[CE]/.G,/.[CE]/.G,/.[CE]/.G,/!ped-up!!ped! | %402
!p!{/G,,} !trill(!TD,6!ped-up!!ped! F,2- F,/>D,/!ped-up! | %403
!ped! .G,,/ .[G,D]/.[DF]/.[G,D]/.[DF]/.[G,D]/ .[DF]/.G,/.[DF]/.G,/.[DF]/.G,/ .[DF]/.G,/.[DF]/.G,/.[DF]/.G,/!ped-up! | %404
!ped!!p! .C,/.[G,C]/.[CE]/.[G,C]/.[CE]/.[G,C]/!ped-up!!ped! .A,,/.[A,C]/.[CE]/.[A,C]/.[CE]/.[A,C]/!ped-up!!ped! .G,,/.[G,C]/.[CE]/.[G,C]/.[CE]/.[G,C]/!ped-up! | %405
!ped! .^F,,/.[A,C]/.[CD]/.[A,C]/.[CD]/.[A,C]/!ped-up!!ped! .F,,/.[A,C]/.[CD]/.[A,C]/.[CD]/.[A,C]/!ped-up!!ped! .G,,/.[G,B,]/.[B,D]/.[G,B,]/.[B,D]/.[G,B,]/!ped-up! | %406
!ped! .C,,/.[C,E,]/.[E,A,]/.[C,E,]/.[E,A,]/.[C,E,]/!ped-up!!ped! .D,,/.[D,G,]/.[G,B,]/.[D,G,]/.[G,B,]/.[D,G,]/!ped-up!!ped! .D,,/.[D,A,]/.[A,C]/.[D,A,]/.[A,C]/.[D,A,]/!ped-up! | %407
!ped! .G,,/.D,/.^F,/.D,/.F,/.D,/!ped-up!!ped! [G,,G,]!ped-up!!ped! z z!ped-up!!ped! z2 z!ped-up! | %408
!ped! z2!pp! _E!ped-up!!ped! (EDE)!ped-up!!ped! (EDE)!ped-up! | %409
!ped! (=E^DE)!ped-up!!ped! (EDE)!ped-up!!ped! (E=F^C)!ped-up! | %410
!ped! (^C3!ped-up!!ped! D)!ped!!ped-up! z z!ped-up!!ped! z2 z!ped-up! | %411
!ped! z2!pp! _D!ped-up!!ped! (DCD)!ped-up!!ped! (DCD)!ped-up! | %412
!ped! (=D^CD)!ped-up!!ped! (DCD)!ped-up!!ped! (DEB,)!ped-up! | %413
!ped! (=C3!ped-up!!ped! F,3!ped-up!!ped! ^F,3)!ped-up! | %414
!ped! G,,G,G,!ped-up!!ped! G,G,G,!ped-up!!ped! G,G,G,!ped-up! | %415
!ped! G,,G,G,!ped-up!!ped! G,G,G,!ped-up!!ped! G,G,G,!ped-up! | %416
 G,,/G,/- G,2 G,,/G,/- G,2 G,,/G,/- G,2 | %417
!ped! !fermata![G,,D,G,]4 x4!ped-up! !fermata!z2 z x x7/4 | x8 x4 x2 | x16!ped! x x/!ped-up! | %420
!p!!ped! .[C,E,]/.[E,G,]/.[G,C]/.[E,G,]/.[C,E,]/.[E,G,]/ .[C,E,]/.[E,G,]/.[G,C]/.[E,G,]/.[C,E,]/.[E,G,]/ .[C,E,]/.[E,G,]/.[G,C]/.[E,G,]/.[C,E,]/.[E,G,]/!ped-up! | %421
!p!!ped! .[C,E,]/.[E,G,]/.[G,C]/.[E,G,]/.[C,E,]/.[E,G,]/ .[C,E,]/.[E,G,]/.[G,C]/.[E,G,]/.[C,E,]/.[E,G,]/ .[C,E,]/.[E,G,]/.[G,C]/.[E,G,]/.[C,E,]/.[E,G,]/!ped-up! | %422
!ped! .[B,,F,]/.[F,G,]/.[G,D]/.[F,G,]/.[B,,F,]/.[F,G,]/ .[B,,F,]/.[F,G,]/.[G,D]/.[F,G,]/.[B,,F,]/.[F,G,]/ .[B,,F,]/.[F,G,]/.[G,D]/.[F,G,]/.[B,,F,]/.[F,G,]/!ped-up! | %423
!ped! .[B,,F,]/.[F,G,]/.[G,D]/.[F,G,]/.[B,,F,]/.[F,G,]/ .[B,,F,]/.[F,G,]/.[G,D]/.[F,G,]/.[B,,F,]/.[F,G,]/ .[G,,F,]/.[F,G,]/.[G,B,]/.[F,G,]/.[G,,F,]/.[F,G,]/!ped-up! | %424
!ped! .[C,E,]/.G,/.C/.G,/.E,/.C,/!ped-up!!ped! .A,,/.A,/.C/.A,/.F,/.C,/!ped-up!!ped! .E,,/.G,/.C/.G,/.E,/.C,/!ped-up! | %425
!<(!!ped! .F,,/.[F,A,]/.[A,C]/.[F,A,]/!<)!.[A,C]/.[F,A,]/!ped-up!!ped! .F,,/.[F,A,]/.[A,^C]/.[F,A,]/.[A,C]/.[F,A,]/!ped-up!!ped!"_dim." .F,,/.[F,A,]/.[A,D]/.[F,A,]/.[A,D]/.[F,A,]/!ped-up! | %426
!p!!ped! .G,,/.[G,=C]/.[CE]/"_cresc.".[G,C]/.[CE]/.[G,C]/!ped!!ped-up! .[CE]/.[G,C]/.[CE]/.[G,C]/.[CE]/.[G,C]/!ped-up!!ped! .G,,/.[G,D]/.[DF]/.[G,D]/.[DF]/.[G,D]/!ped-up! | %427
!ped! .[C,C]!ped-up! z z z2 z z2 z | %428
!p!!ped! .D,,.D,.A,!ped-up!!ped! .D,,.D,.A,!ped-up!!ped! .G,,.D,.G,!ped-up! | %429
!ped! .C,,.C,.G,!ped-up!!ped! .C,,.C,.G,!ped-up!!ped! .F,,.C,.F,!ped-up! | %430
!ped!!<(! .F,,.[F,A,].[A,C]!ped-up!!<)!!ped! .F,,!p!.[F,A,].[A,C]!ped-up!!ped!!>(! .F,,.[F,A,].[A,D]!ped-up!!>)! | %431
 G,,[G,C][CE] G,,[G,C][CE] G,,[G,D][DF] | [C,,C,]!pp! (G,F, E,D,C,) (B,,/C,/B,,/C,/D,/C,/) | %433
!ped! !trill(!TC,6!ped-up!!ped! B,,3!ped-up! |!ped! !trill(!T_B,,6!ped-up!!ped! A,,3!ped-up! | %435
!ped! F,,A,,C,!ped-up!!ped! F,A,^C!ped-up!!ped! DEF!ped-up! | %436
!ped! [G,G]2!ped-up! z!ped! [G,,G,]2!ped-up! z!ped! [G,,,G,,]2!ped-up! z | %437
!mp!!ped! !trill(!TC,,6!ped! E,,2- E,,/>C,,/!ped-up! | %438
!ped! G,,,6-!ped-up!!ped!!ped-up!!ped! G,,,3 | %439
!ped! !trill(!TC,,3!ped-up!!ped! !trill(!TE,,3!ped-up!!ped! G,,2- G,,/4(F,,/8E,,/8D,,/8C,,/8B,,,/8A,,,/8)!ped-up! | %440
!ped! _A,,, G,,,2-!ped-up!!ped! G,,,6!ped-up!!ped!!ped-up! | %441
!ped! C,,G,,- G,,/4(F,,/8E,,/8D,,/8C,,/8B,,,/8A,,,/8)!ped-up!!ped! _A,,, G,,,2-!ped-up!!ped! G,,,3!ped-up! | %442
!ped! C,,G,,- G,,/4(F,,/8E,,/8D,,/8C,,/8B,,,/8A,,,/8)!ped-up!!ped! _A,,, G,,,2-!ped-up!!ped! G,,,3 | %443
!ped! z (G,,_A,,!ped-up!!ped! =A,,^G,,A,,!ped-up!!ped! _B,,A,,B,,!ped-up! | %444
!ped! =B,,=G,, A,,/B,,/!ped-up!!ped! C,2) z z2 z!ped-up! | %445
!ped! B,,G,, A,,/B,,/!ped-up!!ped! C,2 z!ped-up! z2 z | %446
!ped! (B,,G,, A,,/B,,/!ped-up!!ped! C,G,, B,,/C,/!ped-up!!ped! D,G,, ^C,/D,/) | %447
!ped! (D,3!ped-up!!ped! =C,2) z z2 z!ped-up! | %448
[K:treble]!ped! (([Gd]3!ped-up!!ped! [Cc]2))!ped-up! z z2 z |][K:G][M:2/2][K:bass] z4 | %450
 z2 B,2 C2 A,2 | B,2 G,2 F,2 D,2 | G,2 F,2 E,2 ^C2 | D,2 D4 (^C2 | C2 B,2 C2 A,2 | %455
 B,2 G,2 F,2 D,2) | G,2 E,2 C,2 D,2 | (G,,2!f! G,4) (A,2 | B,2 C2 _E2 ^F2 | G2 G,2) (D2 D,2 | %460
 G,2 G,,2 D,2 D,,2) | (G,,2 G,4) (A,2 | B,2 C2 _E2 ^F2 | G2 G,2) (D2 D,2 | G,2 G,,2 D,2 D,,2 | %465
 G,,2 G,,,2)!p!{/E,} (D,^C,D,E, | D,2) (D,,2 E,,2 F,,2 | G,,4 B,,A,,G,,A,, | B,,2 G,,2 ^C,2 A,,2) | %469
 D,4!p!{/E,} (D,^C,D,E, | D,2) D,,2 E,,2 F,,2 | G,,4 B,,A,,G,,A,, | (B,,2 G,,2 C,2 A,,2) | %473
 G,,2 z2"_cresc." (G,2 F,2 | =F,2 E,2 ._E,2)!f! .E,2 | (_E,2 D,2) (3D,,D,F,(3A,F,D, | %476
 (3G,,D,G,(3B,G,D, (3D,,D,F,(3A,F,D, | G,,2"_cresc." G,4 F,2 | =F,2 E,2!f! ._E,2 .E,2 | %479
 (_E,2 D,2)!p! (=E,D,^C,D,) | (B,,2 D,2) (E,D,^C,D,) | B,,2 z2!p! (3B,,F,B,(3^DB,F, | %482
 (3E,G,B,(3EB,G, (3B,,F,B,(3^DB,F, | (3E,G,B,(3EB,G,!p! (B,,A,,^G,,A,,) | %484
 (F,,2 A,,2) (B,,A,,^G,,A,,) | (F,,2 A,,2)!p!"_cresc." (3^C,,^C,E,(3A,E,C, | %486
 (3D,,D,F,(3A,F,D, (3E,,D,E,(3^G,E,D, | (3A,,^C,E,(3A,E,C,!p! (3^C,,C,E,(3A,E,C, | %488
 (3D,,D,F,(3A,F,D, (3E,,D,E,(3^G,E,D, | (3A,,^C,E,(3A,E,C, (3E,,D,E,(3^G,E,D, | %490
 (3A,,^C,E,(3A,E,C, (3E,,D,E,(3^G,!ped-up!E,D,!ped! | A,8- |!ped! A,8-!ped-up! | %493
!ped! A,8-!ped-up! |!ped! A,8-!ped-up! |!ped! A,2 x2!ped-up!!ped! A,,4-!ped-up! | %496
!ped! A,,8-!ped-up! |!ped! A,,2 x2!ped-up!!ped! A,,4-!ped-up! |!ped! A,,8-!ped-up! | %499
!ped! A,,4!ped-up!!ped! A,,4-!ped-up! |!ped! A,,4!ped-up!!ped! A,,4!ped-up! | %501
 A,,2 D,2 z2 .[D,F,]2 | z2 .[D,F,A,]2 z2 .[D,F,A,D]2 | z2 .[F,A,D]2 .[^E,^G,D]2 .[F,A,D]2 | %504
 .[^E,^G,D]2 .[F,A,D]2 .[E,G,D]2 .[F,A,D]2 | .[^E,^G,D]2 .[F,A,D]2 [=G,B,D]4- | %506
 [G,B,D]2 [G,G]2 [A,F]2 [A,E]2 | z2 .[F,A,D]2 .[^E,^G,D]2 .[F,A,D]2 | %508
 .[^E,^G,D]2 .[F,A,D]2 .[E,G,D]2 .[F,A,D]2 | .[^E,^G,D]2 .[F,A,D]2 [A,=CD]4- | [A,CD]8- | %511
 .[A,CD]2 .[F,A,D]2 [A,=CD]4- | [A,CD]8 |!ped! (3[A,CD]CD (3F,A,D (3A,CD (3F,A,D!ped-up! | %514
!ped! (3A,CD (3F,A,D (3A,CD (3F,A,D!ped-up! |!p!!ped! (3A,CD (3G,B,D (3F,A,D (3E,G,D!ped-up! | %516
 (3D,F,D (3C,E,C (3B,,D,B, (3A,,C,A, | (3B,,D,C, (3B,,A,,G,, (3F,,A,,G,, (3F,,E,,D,, | %518
 (3G,,F,,G,, (3E,,F,,G,, (3A,,B,,A,, (3G,,F,,E,, | %519
!p!!ped! (3D,,F,,G,,!ped-up! (3A,,B,,^C, (3D,D,,D, (3B,,D,B,, | %520
 (3=C,D,C, (3B,,D,B,, (3C,D,C, (3A,,D,A,, | (3B,,D,C, (3B,,A,,G,, (3F,,A,,G,, (3F,,E,,D,, | %522
 (3G,,F,,G,, (3E,,^D,,E,, (3C,,B,,,C,, (3=D,,^C,,D,, | %523
 (3G,,,B,,,D,,"_cresc." (3G,,B,,D, (G,,G,A,,A, | B,,B,C,C!mp! _E,_E!>(!F,F | %525
 G,G!>)!G,,G,!p! D,DD,,D, | G,,G,G,,,G,, D,,D,D,,D,) | %527
 (3G,,,B,,,D,, (3G,,F,,G,,"_cresc." (G,,,G,,A,,,A,, | B,,,B,,C,,C,!mp! _E,,_E,!>(!F,,F, | %529
 G,,G,!>)!B,,B,!p! D,DD,,D, | G,,G,G,,,G,, D,,D,D,,D,) | G,,,2 G,,2!p!{/_E,} (D,^C,D,_E, | %532
 D,2) (D,,2 =E,,2 F,,2 | G,,4 _B,,A,,G,,A,, | _B,,2 G,,2 ^C,2 A,,2) | D,4!p!{/_E,} (D,^C,D,_E, | %536
 D,2) (D,,2 =E,,2 ^F,,2 | G,,4) _B,,A,,G,,A,, | (_B,,2 G,,2 C,2 A,,2) | D,2 =B,,2 [_E,C]2 [C,A,]2 | %540
 [=F,D]4!f! (G,,^F,,G,,_A,,) | G,,2 G,,,2 A,,,2 B,,,2 | C,,4 (_E,,D,,C,,D,,) | %543
 ._E,,2 .C,,2 .=F,,2 .D,,2 | G,,4 (_B,,_A,,G,,A,,) | ._B,,2 .G,,2 .C,2 .A,,2 | _B,,4 _B,,,4 | %547
 (3_E,,D,_E, (3=F,,E,=F, (3G,,E,G, (3E,,D,E, | (3=F,,_E,=F, (3G,,E,G, (3_A,,E,_A, (3F,,E,F, | %549
 (3G,,_E,G, (3_A,,E,_A, (3_B,,E,_B, (3G,,E,G, | (3_A,,_E,_A, (3=A,,E,G, (3F,,E,=F, (3_B,,F,_B, | %551
!p! [_E,,_E,]2[K:treble] [G_B]2 [=F_A]2 [_EG]2 | =F2[K:bass] _B,4 B,2 | %553
 [_E,_B,]2 ([_EG]2 [D=F]2 [C_E]2 | D2) G,4 G,2 | (3C,,B,,C, (3D,,C,D, (3_E,,C,_E, (3C,,B,,C, | %556
 (3D,,C,D, (3=E,,C,=E, (3=F,,C,=F, (3D,,C,D, | (3E,,C,E, (3=F,,C,=F, (3G,,C,G, (3E,,C,E, | %558
 (3=F,,C,=F, (3_E,,C,_E, (3D,,C,D, (3G,,D,G, |!p! [C,,C,]2 ([_EG]2 [D=F]2 [CE]2 | .D2) G,4 G,2 | %561
 [C,G,]2 ([_A,C]2 [G,_B,]2 [=F,A,]2 | .G,2) C,4 C,2 | %563
!mp! (3=F,,E,=F, (3G,,F,G, (3_A,,F,_A, (3F,,E,F, | (3G,,=F,G, (3=A,,F,=A, (3_B,,F,_B, (3G,,F,G, | %565
 (3A,,=F,A, (3_B,,F,_B, (3C,F,C (3A,,F,A, | _B,,_B,_D,_D =F,=FB,_B | G,G_E,_E _B,,_B,G,,G, | %568
 _A,,_A,C,C _E,_EA,_A | ^F,^FD,D =A,,=A,^F,,^F, | (3G,,F,G, (3A,,G,A, (3_B,,G,_B, (3G,,F,G, | %571
 (3A,,G,A, (3=B,,G,=B, (3C,G,C (3A,,G,A, | (3B,,G,B, (3C,G,C (3D,G,D (3B,,G,B, | %573
"_decresc." (3C,G,C (3B,,G,B, (3C,G,C (3^C,G,^C |!p! (3D,^CD (3C,D,=C (3_B,,D,_B, (3A,,D,A, | %575
 (3G,,D,G, (3F,,D,F, (3G,,D,G, (3_E,,D,_E, | (3D,,^C,D, (3=C,D,=C (3_B,,D,_B, (3A,,D,A, | %577
 (3G,,D,G, (3F,,D,F, (3G,,D,G, (3_E,,D,_E, |!ped! (3[D,,D,]DD,!ped-up! (3DD,D (3D,DD, (3DD,D | %579
"^dim." (3D,DD, (3DD,D (3D,DD, (3DD,D | (3D,DD, (3DD,D (3D,DD, (3DD,D | %581
!p! (3D,DD, (3DD,D!ped-up!!ped! (3.B,,DD, (3DD,D | %582
!ped! (3.C,DD, (3DD,D!ped-up!!ped! (3.A,,DD, (3DD,D!ped-up! | %583
!p!!ped! (3.B,,DD, (3DD,D!ped-up!!ped! (3.F,,DD, (3DD,D!ped-up! | %584
!ped! (3.G,,DD, (3DD,D!ped-up!!ped! (3.E,,DD, (3DD,D!ped-up! | %585
!ped! (3D,,DD, (3DD,D!ped-up!!ped! (3.B,,DD, (3DD,D!ped-up! | %586
!ped! (3.C,DD, (3DD,D!ped-up!!ped! (3.A,,DD, (3DD,D!ped-up! | %587
!ped! (3.B,,DD, (3DD,D!ped-up!!ped! (3.F,,DD, (3DD,D!ped-up! | %588
!ped! (3.G,,DD, (3DD,D!ped-up!!ped! (3.D,,DD, (3DD,D!ped-up! | (G,,2 (G,4)!<(! A,2 | %590
 B,2 C2!<)!!mp!!>(! _E2 ^F2 | G2!>)! G,2) (D2 D,2 | G,2 G,,2 D,2 D,,2 | (G,,2) (G,4)!<(! A,2 | %594
 B,2 C2!<)!!mp!!>(! _E2 ^F2 | G2!>)! G,2) (D2 D,2 | G,2 G,,2 D,2 D,,2 | %597
 G,,2 G,,,2)!mp!{/E,} (D,^C,D,E, | D,2) (D,,2 E,,2 F,,2 | G,,4 B,,A,,G,,A,, | B,,2 G,,2 ^C,2 A,,2 | %601
 D,4){/E,} (D,^C,D,E, | D,2) (D,,2 E,,2 F,,2 | G,,4 B,,A,,G,,A,, | B,,2 G,,2 C,2 A,,2 | %605
 G,,2) z2"_cresc." G,2 A,2 | B,2 C2!f! ^C2 C2 | (^C2 D2)!p!!ped! (3D,,D,F,(3A,F,D,!ped-up! | %608
!ped! (3G,,D,G,(3B,G,D,!ped-up!!ped! (3D,,D,F,(3A,F,D,!ped-up! | %609
 [G,,G,]2 z2"_cresc." ([G,,G,]2 [A,,F,]2 | [B,,=F,]2 [C,E,]2 .[C,_E,]2) .[C,E,]2 | %611
!mf! _E,2 D,2!p! (=E,D,^C,D,) | (B,,2 D,2) (E,D,^C,D,) | B,,2 z2!p! (3B,,F,B,(3^DB,F, | %614
 (3E,G,B,(3EB,G, (3B,,F,B,(3^DB,F, | (3E,G,B,(3EB,G,!p! (A,,G,,F,,G,,) | %616
 (E,,2 G,,2) (A,,G,,F,,G,,) | (E,,2 G,,2)!p! (3E,,E,^G,(3B,G,E, | %618
 (3A,,E,A,(3CA,E, (3E,,E,^G,(3B,G,E, | (3A,,E,A,(3CA,E,"_cresc." (3E,,E,^G,(3B,G,E, | %620
 (3A,,E,A,(3CA,E, (3C,E,A,(3CA,E, | (3D,A,C(3DCA, (3F,,D,F,(3A,F,D, | %622
 (3G,,D,G,(3B,G,D,!mp! (3A,,G,A,(3^CA,G, | (3D,F,A,(3DA,F, (3F,,D,F,(3A,F,D, | %624
 (3A,,E,A,(3CA,E, (3A,,G,A,(3^CA,G, | (3D,F,A,(3DA,F, (3A,,G,A,(3^CA,G, | %626
 (3D,F,A,(3DA,F, (3A,,G,A,(3^CA,G,!ped!!ped-up! | D8- |!ped! D8-!ped-up! |!ped! D8-!ped-up! | D8- | %631
 D2 x2 D,4- | D,8- | D,2 x2 D,,4- | D,,8- | D,,4 D,,4- | D,,4 D,,4- | D,,2 G,,2 z2 B,,2 | %638
 z2 [G,,B,,D,]2 z2 [G,,B,,D,G,]2 | z2 .[B,,D,G,]2 .[^A,,^C,G,]2 .[B,,D,G,]2 | %640
 .[^A,,^C,G,]2 .[B,,D,G,]2 .[A,,C,G,]2 .[B,,D,G,]2 | .[^A,,^C,G,]2 .[B,,D,G,]2 [=C,E,G,]4- | %642
 [C,E,G,]2 [C,C]2 [D,B,]2 [D,A,]2 | z2 .[B,,D,G,]2 .[^A,,^C,G,]2 .[B,,D,G,]2 | %644
 .[^A,,^C,G,]2 .[B,,D,G,]2 .[A,,C,G,]2 .[B,,D,G,]2 | .[^A,,^C,G,]2 .[B,,D,G,]2 [D,=F,B,]4- | %646
 [D,F,B,]2 .[B,,D,G,]2 [E,G,C]4- | [E,G,C]2 .[^C,E,_B,]2 [E,B,^C]4- | %648
 [E,B,C]2 [E,_B,^C]4 .[E,B,C]2 | (3D,=B,D (3E,_B,^C (3D,=B,D (3^C,_B,E | %650
 (3D,=B,D (E,,2 D,,2 ^C,,2) | D,,2 (3E,_B,^C (3D,=B,D (3^C,_B,E | (3D,=B,D (E,,2 D,,2 ^C,,2) | %653
 D,,2 E,,2 D,,2 ^C,,2 | D,,2 ^C,,2 D,,2 C,,2 | [D,,D,]8- | [D,,D,]8- | x2 B,E, .A,2 .A,2 | %658
 A,2 G, z (G,2 F,2 | =F,2 =E,2) ._E,2 .E,2 | (_E,2 D,2) .^C,2 .=C,2 | C,2 B,,2 _B,,2 A,,2 | %662
 _A,,2 G,,D, .G,2 x2 | (([G,^C]2 [F,D])).B,, .E,2 .E,2 | (([E,^A,]2 [D,B,])).G,, .C,2 .[C,,C,]2 | %665
 (([F,,C,]2 [G,,B,,])).E,, .A,,2 .[F,,A,,]2 | %666
!ped! (3D,,A,,D,(3F,D,A,, (3D,,A,,D,(3F,D,A,,!ped-up! | %667
!ped! (3D,,A,,D,(3F,D,A,, (3D,,A,,D,(3F,D,A,,!ped-up! | %668
!ped! (3D,,A,,D,(3F,D,A,, (3D,,A,,D,(3F,D,A,,!ped-up! | %669
!ped! (3D,,A,,D,(3F,D,A,, (3D,,A,,D,(3F,D,A,,!ped-up! |!ped! D,,2 z2 z4!ped-up! | z8!ped-up!!ped! | %672
 z8 | !fermata!z4 z4 | z2!ped! (.[C,D,]2!ped-up!!ped! .[B,,D,]2!ped-up!!ped! .[A,,D,]2) | %675
!ped! [G,,D,]4 z4!ped-up! | z4!ped-up!!ped! z2 [F,,D,]2 | %677
!ped! (.[G,,D,]2!ped-up!!ped! .[G,,D,]2!ped-up!!ped! .[F,,D,]2!ped-up!!ped! .[E,,D,]2)!ped-up! | %678
!ped! [D,,D,]4 z4!ped-up! | z8 | %680
 z2!ped! (.[D,,D,]2!ped-up!!ped! .[D,,D,]2!ped-up!!ped! .[D,,D,]2)!ped-up! | [E,,E,]4 z4 | %682
 z4!ped! z2 .[F,C]2!ped-up! |!ped! .[G,B,]2!ped-up!!ped! .[E,B,]2!ped-up!!ped! [C,A,]4!ped-up! | %684
!ped! [D,,D,]8!ped-up! |!ped! [B,,D,G,B,]8!ped-up! | z4!ped! z2 .[F,C]2!ped-up! | %687
!ped! .[G,B,]2!ped-up!!ped! .[E,B,]2!ped-up!!ped! [C,A,]4!ped-up! |!pp! (D,,6 E,,F,, | %689
 G,,2 A,,2 B,,2 C,B,,) | !trill(!T[D,,A,,]8- |"_cresc." [D,,A,,]8- | !trill(!T[D,,A,,]8- | %693
!f! [D,,A,,]8- | [D,,A,,]8- | [D,,A,,]8- | [D,,A,,]8{G,,A,,} |!f! [G,,,G,,]2 z2!p! =F,_E,D,E, | %698
 D,2 z2 z2 (([DF]2 | [G,G]2)) z2 =F,_E,D,E, | D,2 z2 z2[K:treble] (([d^f]2 | %701
 [Gg]2)) z2[K:bass] =F,_E,D,E, | =F,_E,D,E, F,E,D,E, | =F,_E,D,E, F,E,D,E, | =F,_E,D,E, F,E,D,E, | %705
 !tenuto!.[D,,D,]2 !tenuto!.^F,4 A,2- | !tenuto!.A,2 !tenuto!.=C4[K:treble] F2- | %707
 !tenuto!.F2 .A2 .c2 .f2 | .a2 .b2 .c'2 .f2 | g2 G2 z2[K:bass] D2 | z2 G,2 z2 D,2 | %711
 z2 G,,2!pp! E,,D,,^C,,D,, | E,,D,,^C,,D,, E,,D,,C,,D,, |"^cresc." E,,D,,^C,,D,, E,,D,,C,,D,, | %714
 E,,D,,^C,,D,, E,,D,,C,,D,, | E,,D,,^C,,D,, z4 |!ff! E,,D,,^C,,D,, z4 | %717
 .[G,,,G,,]2 .[G,,,G,,]2 z4 | z8 |!f! .[G,,,G,,]2 .[G,,,G,,]2 z4 | z8 |!p! [G,,,G,,]2 z2 z4 | %722
!pp! [G,,,G,,]2 z2 z4 | [G,,,G,,]2 z2 [G,,,G,,]2 z2 | !fermata!z8 |] %725
V:3
 x/ | x4 | x4 |: x4 | x4 | x4 | x4 | x4 | x4 | x4 | x4 | x4 | x4 | x4 | x4 | x4 | x4 | x4 | x4 | %19
 x4 | x4 | x4 | x4 | x4 | x4 | x4 | x4 | x4 | x4 | x4 | x4 | x4 | x4 | x4 | x4 | x4 | x4 | x4 | %38
 x4 | x2[K:treble] x2 | x2[K:bass] x2 | x2[K:treble] x2 | x2[K:bass] x2 | x4 | x4 | x4 | x4 | x4 | %48
 x4 | x4 | x4 | x4 | x4 | x4 | x4 | x4 | x4 | x4 | x4 | x4 | x4 | x4 | x4 | x4 | x4 | x4 | x4 | %67
 x4 | x4 | x4 | x4 | x4 | x4 | x4 | x4 | x4 | x4 | x4 | x4 | x4 | x4 | x4 | x4 | x4 | x4 | x4 | %86
xF,, G,,2 | E,,2 F,,2 | x4 | x4 | x4 | x4 | x4 | x4 | x4 | x4 | x4 | x4 | B,,2 z2 | F,,4 | %100
 B,,2 z2 | F,,4 | B,,2 z2 | F,,4 | .B,, z .F,, z | .B,, z .F,, z | .B,,2 .F,,2 | .B,,2 .F,,2 | %108
 .B,,2 z2 | x4 | x4 | x4 |1 x4 | x4 :|2 x4 | x4 || x4 | x4 | x4 | x4 | x4 | x4 | x4 | x4 | x4 | %125
 x4 | x4 | x4 | x4 | x4 | x4 | x4 | x4 | x2[K:treble] x2 |[K:bass] x2[K:treble] x2 | %135
[K:bass] x2[K:treble] x2 |[K:bass] x4 | x4 | x4 | x4 | x4 | x4 | x4 | x4 | x4 | x4 | x4 | x4 | x4 | %149
 x4 | x4 | x4 | x4 | x4 | x4 | x4 | x4 | x4 | x4 | x4 | x4 | x4 | x4 | x4 | x4 |[K:treble] x4 | %166
[K:bass] x4 | x4 | x4 |[K:treble] x4 |[K:bass] x4 | x4 | x2[K:treble] x2 | x4 | x4 | x4 | %176
[K:bass] x2[K:treble] x2 | x4 | x4 | x4 |[K:bass] x2[K:treble] x2 | x4 | x4 | x4 | x4 | %185
[K:bass] x4 |[K:treble] x4 |[K:bass] x4 |[K:treble] x4 |[K:bass] x4 | x4 | x4 | x4 | x4 | x4 | x4 | %196
 x4 | x4 | x4 | x4 | x4 | x4 | x4 | x4 | x4 | x4 | x4 | x4 | x4 | x4 | x4 | x4 | x4 | %213
[K:treble] x4 | x4 |[K:bass] x4 | x4 | x4 | x4 |[K:bass] x4 | x4 | x4 | x4 | x4 | x4 | x4 | x4 | %227
 x4 | x4 | x4 | x4 | x4 | x4 | x4 | x4 | x4 | x4 | x4 | x4 | x4 | x4 | x4 | x4 | x4 | x4 | x4 | %246
 x4 | x4 | x4 | x4 | x4 | x4 | x4 | x4 | x4 | x4 |xD,, E,,2 | C,,2 D,,2 | x4 | x4 | x4 | x4 | x4 | %263
 x4 | x4 | x4 | x4 | x4 | G,,2 z2 | D,,4 | G,,2 z2 | D,,4 | G,,2 z2 | D,,4 | .G,, z .D,, z | %275
 .G,, z .D,, z | .G,,2 .D,,2 | .G,,2 .D,,2 | .G,,2 z2 | x4 | x4 | x4 | x4 | x4 | x4 | x4 | x4 | %287
 x4 | x4 | x4 | x4 | x2[K:treble] x2 | x2[K:bass] x2 | x2[K:treble] x2 | x2[K:bass] x2 | x4 | x4 | %297
 x4 | x4 |[K:treble] x4 | x4 | x4 |[K:bass] x4 | x4 | x4 | x4 | x4 | x4 | x4 | x4 |[K:bass] x4 | %311
 x4 | x4 | x4 | x4 | x4 | x4 | x4 | x4 | x4 | x4 | x4 | x4 | x4 | x4 | x4 | x4 | x7/2 |] %328
[K:C][M:9/8] C,3 z2 z z2 z | C,3 z2 z z2 z | B,,3 z2 z z2 z | B,,3 z2 z G,,2 z | x9 | x9 | x9 | %335
 x6 x2 x3/4 x/4 | %336
 x/4x/4x/4x/4(6:4:6x/4x/4x/4x/4x/4x/4(6:4:6x/4x/4x/4x/4x/4x/4 (6:4:6x/4x/4x/4x/4x/4x/4(6:4:6x/4x/4x/4x/4x/4x/4(5:4:5x/4x/4x/4 !trill)!B,,/4C,/4 x2 x | %337
 x G,2- G,3- G,3 x/4 | %338
 x/4x/4x/4x/4(6:4:6x/4x/4x/4x/4x/4x/4(6:4:6x/4x/4x/4x/4x/4x/4 (6:4:6x/4x/4x/4x/4x/4x/4(6:4:6x/4x/4x/4x/4x/4x/4(5:4:5x/4x/4x/4 !trill)!^C,/4D,/4 x2 x | %339
 x G,2- G,3- G,3 | x9 | x9 | x9 | x9 | x2 z z2 z z2 z | A,6 A,3 | (D,3 D,) x x x2 x | %347
 x2 z z2 z z2 z | G,6 G,3 | x9 | G,,6- G,,3 | G,,6- G,,3 | %352
 x G,/B,,/C,/_E,/ x G,/B,,/C,/A,,/ x G,/B,,/C,/_E,/ | !fermata![G,,D,]6 x2 x2 x x33/2 | %354
 C,3 z2 z z2 z | C,3 z2 z z2 z | B,,3 z2 z z2 z | B,,3 z2 z G,,2 z | x9 | x9 | x9 | x9 | x9 | x9 | %364
 x9 | x9 | x9 | x9 | x9 | x9 | x6 x2 x3/4 x/8x/8 | .x/ x/ x2 x6 | x9 | x9 | x6 x2 x3/4 x/8x/8 | %375
 .x/ x/ x2 x6 | x9 | x9 | x9 | x9 | x9 | x9 | G,3 G,3 G,3 | G,2 x G,2 x G,2 x | x9 | %385
 G,,,2 z z2 z z z (^F,,, | G,,,2) z z2 z z z (^F,,, | G,,,2) z z2 z G,,G,,G,, | x9 | x9 | x9 | %391
 x3- G,,2 z G,3 | x9 | x9 | x9 | x9 | x9 | x9 | x9 | x6 x2 x3/4 x/4 | %400
 x/4x/4x/4x/4(6:4:6x/4x/4x/4x/4x/4x/4(6:4:6x/4x/4x/4x/4x/4x/4 (6:4:6x/4x/4x/4x/4x/4x/4(6:4:6x/4x/4x/4x/4x/4x/4(5:4:5x/4x/4x/4 !trill)!B,,/4C,/4 x2 x | %401
 x6 x2 x3/4 x/4 | %402
 x/4x/4x/4x/4(6:4:6x/4x/4x/4x/4x/4x/4(6:4:6x/4x/4x/4x/4x/4x/4 (6:4:6x/4x/4x/4x/4x/4x/4(6:4:6x/4x/4x/4x/4x/4x/4(5:4:5x/4x/4x/4 !trill)!^C,/4D,/4 x2 x | %403
 x9 | x9 | x9 | x9 | x9 | x2 z z2 z z2 z | A,6 A,3 | D,3- D, x x x2 x | x2 z z2 z z2 z | G,6 G,3 | %413
 x9 | G,,6- G,,3 | G,,6- G,,3 | x z/ (B,,/C,/_E,/) D, z/ (B,,/C,/A,,/) x z/ (B,,/C,/E,/) | x55/4 | %418
 x14 | x35/2 | x9 | x9 | x9 | x9 | x9 | x9 | x9 | x9 | x9 | x9 | x9 | x9 | x9 | %433
 x/4x/4x/4x/4(6:4:6x/4x/4x/4x/4x/4x/4(6:4:6x/4x/4x/4x/4x/4x/4 (6:4:6x/4x/4x/4x/4x/4x/4(6:4:6x/4x/4x/4x/4x/4x/4(5:4:5x/4x/4x/4 !trill)!B,,/4C,/4 x2 x | %434
 x/4x/4x/4x/4(6:4:6x/4x/4x/4x/4x/4x/4(6:4:6x/4x/4x/4x/4x/4x/4 (6:4:6x/4x/4x/4x/4x/4x/4(6:4:6x/4x/4x/4x/4x/4x/4(5:4:5x/4x/4x/4 !trill)!A,,/4_B,,/4 x2 x | %435
 x3 x3- F,3 | x9 | %437
 x/4x/4x/4x/4(6:4:6x/4x/4x/4x/4x/4x/4(6:4:6x/4x/4x/4x/4x/4x/4 (6:4:6x/4x/4x/4x/4x/4x/4(6:4:6x/4x/4x/4x/4x/4x/4(5:4:5x/4x/4x/4 !trill)!B,,,/4C,,/4 x2 x | %438
 x9 | %439
 x/4x/4x/4x/4(6:4:6x/4x/4x/4x/4x/4x/4(3x/4x/4x/4 !trill)!B,,,/4C,,/4 x/4x/4x/4x/4(6:4:6x/4x/4x/4x/4x/4x/4(3x/4x/4x/4 !trill)!D,,/4E,,/4 x3 | %440
 x9 | x9 | x9 | C,,6- C,,3 | C,,3- C,,2 x x2 x | C,,3- C,,2 x x2 x | C,,6- C,,3 | %447
 C,,3- C,,2 x x2 x |[K:treble] x9 |][K:G][M:2/2][K:bass] x4 | D,8- | D,8- | D,8- | D,8- | D,8 | %455
 D,8 | x8 | x2 x6- | G,8 | G,2 x2 x4 | x8 | x2 x6- | G,8 | G,2 x2 x4 | x8 | x8 | x2 D,,6- | D,,8- | %468
 D,,4 D,,4 | D,,4 x4 | x2 D,,6- | D,,8- | D,,4 D,,4 | G,,,2 G,,6- | G,,8- | G,,4 x4 | x8 | G,,8- | %478
 G,,8- | G,,4 D,,2 z2 | G,,4 D,,2 z2 | G,,2 x2 x4 | x8 | x8 | x8 | x8 | x8 | x8 | x8 | x8 | %490
 x4 x7/2 x/ | A,,2 x2!p! G,2 E,2 | F,2 D,2 G,2 E,2 | F,2 D,2 G,2 E,2 | F,2 D,2 E,2 A,,2 | %495
 D,2 F,,2 G,,2 E,,2 | F,,2 D,,2 E,,2 A,,,2 | D,,2 F,,2 G,,2 E,,2 | F,,2 D,,2 E,,2 A,,,2 | %499
 F,,2 D,,2 E,,2 A,,,2 | F,,2 D,,2 E,,2 A,,,2 | D,,2 x2 x4 | x8 | x8 | x8 | x8 | x8 | x8 | x8 | x8 | %510
 x8 | x8 | x8 | x8 | x8 | x8 | x8 | x8 | x8 | x8 | x8 | x8 | x8 | x8 | x8 | x8 | x8 | x8 | x8 | %529
 x8 | x8 | x8 | x2 D,,6- | D,,8- | D,,4 D,,4 | D,,4 x4 | x8 | x8 | x8 | x8 | x8 | x8 | x8 | x8 | %544
 x8 | x8 | x8 | x8 | x8 | x8 | x8 | x2[K:treble] x6 | D2[K:bass] _A,2 G,2 =F,2 | x8 | %554
 =B,2 (=F,2 _E,2 D,2) | x8 | x8 | x8 | x8 | x8 | .=B,2 (=F,2 _E,2 D,2) | x8 | %562
 .=E,2 _B,,2 _A,,2 G,,2 | x8 | x8 | x8 | x8 | x8 | x8 | x8 | x8 | x8 | x8 | x8 | x8 | x8 | x8 | %577
 x8 | x8 | x8 | x8 | x8 | x8 | x8 | x8 | x8 | x8 | x8 | x8 | x2 x6- | G,8- | G,2 x2 x4 | x8 | %593
 x2 x6- | G,8- | G,2 x2 x4 | x8 | x8 | x2 D,,6- | D,,8- | D,,4 D,,4 | D,,4 x4 | x2 D,,6- | D,,8- | %604
 D,,4 D,,4 | G,,,2 x2 G,2 F,2 | =F,2 E,2 [_E,_B,]2 [E,B,]2 | ([_E,_B,]2 [D,=B,]2) x4 | x8 | x8 | %610
 x8 | (C,2 B,,2) D,,2 z2 | G,,4 D,,2 z2 | G,,2 x2 x4 | x8 | x8 | x8 | x4 x4 | x8 | x8 | x8 | x8 | %622
 x8 | x8 | x8 | x8 | x15/2 x/ | D,2 z2 =C2 A,2 | B,2 G,2 C2 A,2 | B,2 G,2 C2 A,2 | %630
 B,2 G,2 A,2 D,2 | G,2 B,,2 C,2 A,,2 | B,,2 G,,2 A,,2 D,,2 | G,,2 B,,,2 C,,2 A,,,2 | %634
 B,,,2 G,,,2 A,,,2 C,,2 | B,,,2 G,,,2 A,,,2 C,,2 | B,,,2 G,,,2 A,,,2 C,,2 | B,,,2 G,,,2 x2 G,,2 | %638
 x8 | x8 | x8 | x8 | x8 | x8 | x8 | x8 | x8 | x8 | x8 | x8 | x8 | x8 | x8 | x8 | x8 | x8 | x8 | %657
 [D,,D,]8- | [D,,-D,]8 | D,,8- | D,,8- | D,,8- | D,,3 D,, G,,2 .G,2 | x8 | x8 | x8 | x8 | x8 | x8 | %669
 x8 | x8 | x8 | x8 | x8 | x8 | x8 | x8 | x8 | !arpeggio!x4 x4 | x8 | x8 | x8 | x8 | x8 | x8 | %685
 !arpeggio!x8 | x8 | x8 | x8 | x8 | %690
 (6:4:6x/x/x/x/x/x/ (6:4:6x/x/x/x/x/x/ (6:4:6x/x/x/x/x/x/ (6:4:6x/x/x/x/x/x/ | %691
 (6:4:6x/x/x/x/x/x/ (6:4:6x/x/x/x/x/x/ (6:4:6x/x/x/x/x/x/ (6:4:6x/x/x/x/x/!trill)!x/ | %692
 (3xxx (3xxx (3xxx (3xxx | (3xxx (3xxx (3xxx (3xxx | (3xxx (3xxx (3xxx (3xxx | %695
 (3xxx (3xxx (3xxx (3xxx | (3xxx (3xxx (3xxx x/x/!trill)!x/x/ | x8 | x8 | x8 | x6[K:treble] x2 | %701
 x4[K:bass] x4 | x8 | x8 | x8 | x8 | x6[K:treble] x2 | x8 | x8 | x6[K:bass] x2 | x8 | x8 | x8 | %713
 x8 | x8 | x8 | x8 | x8 | x8 | x8 | x8 | x8 | x8 | x8 | x8 |] %725
V:4
 x/ | x4 | x4 |: x4 | x4 | x4 | x4 | x4 | x4 | x4 | x4 | x4 | x4 | x4 | x4 | x4 | x4 | x4 | x4 | %19
 x4 | x4 | x4 | x4 | x4 | x4 | x4 | x4 | x4 | x4 | x4 | x4 | x4 | x4 | x4 |[K:bass] x4 | x4 | x4 | %37
 x4 | x4 |[K:treble] x4 | x4 | x4 | x4 | x2[K:bass] x2 | x4 | x7/2[K:treble] x/ | x4 | x4 | x4 | %49
 x4 | x4 | x4 | x4 | x4 | x4 | x4 | x4 | x4 | x4 | x4 | x4 | x4 | x4 | x4 | x4 | x4 | x4 | x4 | %68
 x4 | x4 | x4 | x4 | x4 | x4 | x4 | x4 | x4 | x4 | x4 | x4 | x4 | x4 | x4 | x4 | x4 | x4 | x4 | %87
 x4 | x4 | x4 | x4 | x4 | x4 | z/ B/^A/B/ (B2- | B/=A/^G/A/) (A2- | A/=G/F/G/) (G2 | F) z z2 | %97
 E z ^C z | z .[DF].[DF].[DF] | .[EF].[EF].[EF].[EF] | z!<(! .[^DF].[DF].[DF]!<)! | %101
 .[EF].[EF].[EF].[EF] | z .[=DF].[DF].[DF] | .[EF].[EF].[EF].[EF] | .[DF].[DF].[EF].[EF] | %105
 .[DF].[DF].[EF].[EF] | .[DF].[DF].[EF].[EF] | .[DF].[DF].[EF].[EF] | x7/2[K:bass] x/ | x4 | x4 | %111
 x7/2[K:treble] x/ |1 x4 | x4 :|2 x4 | x4 || x4 | x4 | x4 | x4 | x4 | x4 | x4 | x4 | x4 | x4 | x4 | %127
 x4 | x4 | x4 | x4 | x4 | x4 | x4 | x4 | x4 | x4 | x4 | x4 | x4 |[K:bass] x4 | x4 | %142
 x2[K:treble] x2 | x2 (7:4:7x/x/x/x/x/x/x/ | x4 | x4 | x4 | x4 | x4 |[K:bass] x4 | %150
 x2[K:treble] x2 | x2 (7:4:7x/x/x/x/x/x/x/ | x4 | x4 | x4 |[K:bass] x4 | x4 | x4 | x4 | x4 | x4 | %161
 x4 | x4 | x4 | x2[K:treble] x2 | x4 | x2[K:bass] x2 | x4 | x2[K:treble] x2 | x4 | x2[K:bass] x2 | %171
 x4 | x4 | x4 | x4 | x4 | x4 | x4 | x4 | x4 | x4 | x4 | x4 | x4 | x4 | x4 | x4 | x4 | x4 | x4 | %190
 x4 | x4 | x4 | x4 | x4 | x7/2[K:treble] x/ | x4 | x4 | x4 | x4 | x4 | x4 | x4 | x4 | x4 | x4 | %206
 x4 | x4 | x4 | x4 | x4 | x4 | x4 | x4 | x4 | x4 | x4 | x4 | x4 | x4 | x4 | x4 | x4 | x4 | x4 | %225
 x4 | x4 | x4 | x4 | x4 | x4 | x4 | x4 | x4 | x4 | x4 | x4 | x4 | x4 | x4 | x4 | x4 | x4 | x4 | %244
[K:bass] x4 | x4 | x4 | x4 | x4 |[K:treble] x4 | x4 | x4 | x4 | x4 | x4 | x4 | x4 | x4 | x4 | x4 | %260
 x4 | x4 | x4 | z/ G/^F/G/ (G2- | G/^F/^E/F/) (F2- | F/=E/^D/E/) E2 | D z z2 | C z A, z | %268
 z .[B,D].[B,D].[B,D] | .[CD].[CD].[CD].[CD] | z!<(! .[_B,D].[B,D].[B,D]!<)! | %271
 .[CD].[CD].[CD].[CD] | z .[B,D].[B,D].[B,D] | .[CD].[CD].[CD].[CD] | .[B,D].[B,D].[CD].[CD] | %275
 .[B,D].[B,D].[CD].[CD] | .[B,D].[B,D].[CD].[CD] | .[B,D].[B,D].[CD].[CD] | x7/2[K:bass] x/ | x4 | %280
 x4 | x7/2[K:treble] x/ | x4 | x4 | x4 | x4 |[K:bass] x4 | x4 | x4 | x4 | x4 |[K:treble] x4 | x4 | %293
 x4 | x4 | x2[K:bass] x2 | x4 | x7/2[K:treble] x/ | x4 | x4 | x4 | x4 | x4 | x4 | x4 | x4 | x4 | %307
 x4 | x4 | x4 | x4 | x4 | x4 | x4 | x4 | x4 | x4 | x4 | x4 | x4 | x4 | x4 | x4 | x4 | x4 | x4 | %326
 x2[K:bass] x2 | x7/2 |] %328
[K:C][M:9/8][K:treble] x/4x/4x/4x/4(6:4:6x/4x/4x/4x/4x/4x/4(6:4:6x/4x/4x/4x/4x/4x/4 (6:4:6x/4x/4x/4x/4x/4x/4(6:4:6x/4x/4x/4x/4x/4x/4(5:4:5x/4x/4x/4 !trill)!B/4c/4 x2 x | %329
 x9 | %330
 x/4x/4x/4x/4(6:4:6x/4x/4x/4x/4x/4x/4(6:4:6x/4x/4x/4x/4x/4x/4 (6:4:6x/4x/4x/4x/4x/4x/4(6:4:6x/4x/4x/4x/4x/4x/4(5:4:5x/4x/4x/4 !trill)!^c/4d/4 x2 x | %331
 x6 x2 x3/4 x/4 | x2 x3/4 x/4 x2 x3/4 x/4 x2 x | x9 | x9 | x9 | x9 | x37/4 | x9 | x9 | %340
 x x7/4 x/4 x3- x2 x | x9 | x6 x2 x3/4 x/4 | x3 x2 x4 | x6 (G^FG) | (G^FG) (GFG) (GAA) | %346
 (A3 A) x x x2 x | x6 (FEF) | (FEF) (FEF) (FGG) | G(G^G) z (GA) z (AD) | D2 z G2 =F EDC | %351
 B,2 z G2 =F EDC | B, z/ (F/E/C/ B,) z/ (=F/=E/C/ B,) z/ (=F/E/C/) | B,6 x2 x2 x x33/2 | %354
 x/4x/4x/4x/4(6:4:6x/4x/4x/4x/4x/4x/4(6:4:6x/4x/4x/4x/4x/4x/4 (6:4:6x/4x/4x/4x/4x/4x/4(6:4:6x/4x/4x/4x/4x/4x/4(5:4:5x/4x/4x/4 !trill)!B/4c/4 x2 x | %355
 x9 | %356
 x/4x/4x/4x/4(6:4:6x/4x/4x/4x/4x/4x/4(6:4:6x/4x/4x/4x/4x/4x/4 (6:4:6x/4x/4x/4x/4x/4x/4(6:4:6x/4x/4x/4x/4x/4x/4(5:4:5x/4x/4x/4 !trill)!^c/4d/4 x2 x | %357
 x9 | x9 | x9 | x9 | x6[K:bass] x3 | x9 |[K:treble] x9 | x9 | x9 | x9 | x9 | x6 x2 x3/4!p! x/8x/8 | %369
 .x/ x/ x2 x2 x x2 x | x9 | x9 | x6 x2 x3/4!p! x/8x/8 | .x/ x/ x2 x2 x x2 x | x9 | x9 | %376
 x6[K:bass] x3 | x3[K:treble] x3[K:bass] x3 | x3[K:treble] x6 | x9 | D2 x z (dB c2 =A) | %381
 B2 x z (dB c2 =A-) | AB_A- A_BG- G=A^F- | F(_A=F) x (GF) x (G_E) | %384
 x[K:bass] (CA,) x (^F,_E,) x (C,A,,) | B,,2 x x2 x4 | x9 | x9/2[K:treble] x9/2 | %388
[I:staff +1] G,2[I:staff -1] z z z (^F G3) | z z (^F G3) z z (F | G2) z A3 G3 | x9 | %392
 x/4x/4x/4x/4(6:4:6x/4x/4x/4x/4x/4x/4(6:4:6x/4x/4x/4x/4x/4x/4 (6:4:6x/4x/4x/4x/4x/4x/4(6:4:6x/4x/4x/4x/4x/4x/4(5:4:5x/4x/4x/4 !trill)!B/4c/4 x2 x | %393
 x9 | %394
 x/4x/4x/4x/4(6:4:6x/4x/4x/4x/4x/4x/4(6:4:6x/4x/4x/4x/4x/4x/4 (6:4:6x/4x/4x/4x/4x/4x/4(6:4:6x/4x/4x/4x/4x/4x/4(5:4:5x/4x/4x/4 !trill)!^c/4d/4 x2 x | %395
 x6 x2 x3/4 x/4 | x2 x3/4 x/4 x2 x3/4 x/4 x2 x | x9 | x9 | x9 | x9 | x9 | x9 | x9 | %404
 x2 x3/4 x/4 x3- x/ x/ x x | x9 | x9 | x9 | x3 x3 x/ G/x/^F/x/G/ | %409
 z/ G/z/^F/z/G/ z/ G/z/F/z/G/ x/ G/x/A/x/A/ | A3- A x x4 | x3 x3 x/ F/x/E/x/F/ | %412
 z/ F/z/E/z/F/ z/ F/z/E/z/F/ x/ F/x/G/x/G/ | %413
 (G/^F/)(F/G/)(G/^G/) z/ .G/(G/A/)(B/A/) z/ .A/(A/D/)(A/D/) | D/GGG/- G/GG=F/- F/EDC/ | %415
 B,/D/B,/GG/- G/GG=F/- F/EDC/ | B,=FE/C/ B,=F=E/C/ B,=FE/C/ | B,4 x4 x4 x7/4 | x14 | x35/2 | %420
 x/4x/4x/4x/4(6:4:6x/4x/4x/4x/4x/4x/4(6:4:6x/4x/4x/4x/4x/4x/4 (6:4:6x/4x/4x/4x/4x/4x/4(6:4:6x/4x/4x/4x/4x/4x/4(5:4:5x/4x/4x/4 !trill)!B/4c/4 x2 x | %421
 x9 | %422
 x/4x/4x/4x/4(6:4:6x/4x/4x/4x/4x/4x/4(6:4:6x/4x/4x/4x/4x/4x/4 (6:4:6x/4x/4x/4x/4x/4x/4(6:4:6x/4x/4x/4x/4x/4x/4(5:4:5x/4x/4x/4 !trill)!^c/4d/4 x2 x | %423
 x6 x2 x | x9 | x9 | x3 x2 x7/8 x/16x/16 x x x | x9 | C6 B,3 | _B,6 A,3 | F A c f x x4 | x9 | x9 | %433
 x6 x/4x/4x/4x/4(6:4:6x/4x/4x/4x/4x/4x/4(5:4:5x/4x/4!trill)!x/4 ^c'/4d'/4 | %434
 x6 x/4x/4x/4x/4(6:4:6x/4x/4x/4x/4x/4x/4(5:4:5x/4x/4!trill)!x/4 b/4c'/4 | x9 | x7/2[K:bass] x11/2 | %437
 x9 | F,/G,/F,/G,/F,/G,/ F,/G,/F,/G,/F,/G,/ F,/G,/F,/G,/F,/G,/ | x9 | %440
 F,/G,/F,/G,/F,/G,/ F,/G,/F,/G,/F,/G,/ F,/G,/F,/G,/F,/G,/ | %441
 x3 F,/G,/F,/G,/F,/G,/ F,/G,/F,/G,/F,/G,/ | x3 F,/G,/F,/G,/F,/G,/ F,/G,/F,/G,/F,/G,/ | %443
 z/ F,"_decresc."F,F,/- F,/F,F,F,/- F,/F,F,F,/- | F,/F,F,F,/ E,2 x x2 x | %445
[K:treble] z/ G,G,G,/ G,2 x x2 x | z/ G,G,G,/- G,/G,G,G,/- G,/G,G,G,/ | x9 | x9 |][K:G][M:2/2] x4 | %450
 x2 D6- | D8- | D2 G4 G2 | F4 x4 | x2 D6- | D8- | D2 E2- [EA]2 [CF]2 | B,2 z2 B2 c2 | %458
 d2 G2 .[Gc]2 .[Ac]2 | c2 B2 [FA]4 | [DG]4 [FA]4 | [DG]2 z2 B2 =c2 | d2 G2 .[Gc]2 .[Ac]2 | %463
 c2 B2 [FA]4 | [DG]4 [FA]4 | [DG]2 x2 x4 | x8 | x8 | x8 | x8 | x8 | x8 | x8 | x8 | x8 | x4 [FA]4 | %476
 [DG]4 [FA]4 | [DG]2 x2 x4 | x8 | x8 | x8 | x8 | x8 | x8 | x8 | x8 | x4 [^GB]2 [GB]2 | %487
 [A^c]2 z2 x4 | x4 [^GB]2 [GB]2 | [A^c]2 z2 [^GB]2 [GB]2 | [A^c]2 z2 [^GB]2 [GB]2 | x8 | x8 | x8 | %494
 x8 | x8 | x8 | x8 | x8 | x8 | x8 | x8 | x8 | x8 | x8 | x8 | x8 | x8 | x8 | x8 | x8 | x8 | x8 | %513
 x8 | x8 | x8 | x8 | x8 | x8 | x8 | x8 | x8 | x8 | x4 G4- | G2 G4 .A2 | c2 B2 [FA]4 | %526
 [DG]2 z2 [FA]4 | [DG]2 x2 G4- | G2 G4 .A2 | G4 [FA]4 | [DG]2 z2 [FA]4 | [DG]2 x6 | x8 | x8 | x8 | %535
 x8 | x4[K:bass] x4 | x8 | x8 | x4[K:treble] x4 | x4 [D=F]4 | [C_E]4 =F4 | (_E4 =F4 | G4 _A4 | %544
 _B4 c4 | d2 _B2 _e2 e2 | _e2 _B4 _A2 | G2) x2 _e4- | e2 x2 _E4- | _E2 x2 _d2 =B2 | %550
 c2!>(! _B2 _A2!>)! A2 | x8 | x8 | x8 | x8 | x4 c4- | c2 x2 C4- | C2 x2 _B2 G2 | %558
 _A2!>(! G2 =F2!>)! F2 | x8 | x8 | x8 | x8 | x8 | x8 | F2 x2 (_e4 | _d2) x2 x4 | x4 (_d4 | %568
 c2) x2 x4 | x4 (c4 | _B2) x2 x4 | x8 | G2 x2 =f2 d2 | _e2 c2 d2 =e2 | d2 x2 (d'2 c'2 | %575
 _b2 a2 b2 g2 | f2) x2 d2 c2 | _B2 A2 B2 G2 | x8 | x8 | x8 | x8 | x8 | x8 | x8 | x8 | x8 | x8 | %588
 x8 | x8 | x8 | x4 [FA]4 | [DG]2 z2 [FA]4 | [DG]2 x2 x4 | x8 | x4 [^FA]4 | [DG]2 z2 [FA]4 | %597
 [DG]2 x6 | x8 | x8 | x8 | x8 | x8 | x8 | x8 | x8 | x8 | x4 [FA]4 | [DG]2 z2 [FA]4 | x8 | x8 | %611
 x4 x4 | x8 | x8 | x8 | x8 | x8 | x8 | x8 | x8 | x8 | x8 | x4 [^ce]2 [ce]2 | [df]2 z2 x4 | %624
 x4 .[^ce]2 .[ce]2 | [df]2 z2 .[^ce]2 .[ce]2 | [df]2 z2 .[^ce]2 .[ce]2 | x8 | x8 | x8 | x8 | x8 | %632
 x6[K:bass] x2 | x8 | x8 | x8 | x8 | x8 |[K:treble] x8 | x8 | x8 | x8 | x8 | x8 | x8 | x8 | x8 | %647
 x8 | x8 | x8 | x8 | x8 | x8 | x8 | x8 | x8 | x2 z G, .C2 .C2 | C2 x6 | x8 | x8 | x8 | x8 | x8 | %663
 x8 | x8 | x8 | x8 | c8- | c7/2 D/ c2 c2 | c8 | c7/2 (D/ c2) c2 | x8 | x8 | x8 | x8 | x8 | %676
 x4 z2 =C2 | x8 | x8 | x8 | x8 | x8 | x4 z2 D2 | D2 E2 [EA]4 | x8 | x8 | x4 z2 D2 | D2 E2 [EA]4 | %688
 x8 | x8 | x8 | x8 | x8 | F2 z2 z4 | F2 z2 z4 | F2 z2 F2 z2 | F2 z2 F2 z2 | G2 x2 x2 G,2 | x8 | %699
 x8 | x8 | x8 | x8 | x8 | x8 | x8 | x8 | x8 | x8 | x8 | x8 | x8 | x8 | x8 | x8 | x8 | x8 | x8 | %718
 x8 | x8 | x8 | x8 | x4[K:bass] x4 | x8 | x8 |] %725
V:5
 x/ | x4 | x4 |: x4 | x4 | x4 | x4 | x4 | x4 | x4 | x4 | x4 | x4 | x4 | x4 | x4 | x4 | x4 | x4 | %19
 x4 | x4 | x4 | x4 | x4 | x4 | x4 | x4 | x4 | x4 | x4 | x4 | x4 | x4 | x4 |[K:bass] x4 | x4 | x4 | %37
 x4 | x4 |[K:treble] x4 | x4 | x4 | x4 | x2[K:bass] x2 | x4 | x7/2[K:treble] x/ | x4 | x4 | x4 | %49
 x4 | x4 | x4 | x4 | x4 | x4 | x4 | x4 | x4 | x4 | x4 | x4 | x4 | x4 | x4 | x4 | x4 | x4 | x4 | %68
 x4 | x4 | x4 | x4 | x4 | x4 | x4 | x4 | x4 | x4 | x4 | x4 | x4 | x4 | x4 | x4 | x4 | x4 | x4 | %87
 x4 | x4 | x4 | x4 | x4 | x4 | x4 | x4 | x4 | x4 | x4 | x4 | x4 | x4 | x4 | x4 | x4 | x4 | x4 | %106
 x4 | x4 | x7/2[K:bass] x/ | x4 | x4 | x7/2[K:treble] x/ |1 x4 | x4 :|2 x4 | x4 || x4 | x4 | x4 | %119
 x4 | x4 | x4 | x4 | x4 | x4 | x4 | x4 | x4 | x4 | x4 | x4 | x4 | x4 | x4 | x4 | x4 | x4 | x4 | %138
 x4 | x4 |[K:bass] x4 | x4 | x2[K:treble] x2 | x4 | x4 | x4 | x4 | x4 | x4 |[K:bass] x4 | %150
 x2[K:treble] x2 | x4 | x4 | x4 | x4 |[K:bass] x4 | x4 | x4 | x4 | x4 | x4 | x4 | x4 | x4 | %164
 x2[K:treble] x2 | x4 | x2[K:bass] x2 | x4 | x2[K:treble] x2 | x4 | x2[K:bass] x2 | x4 | x4 | x4 | %174
 x4 | x4 | x4 | x4 | x4 | x4 | x4 | x4 | x4 | x4 | x4 | x4 | x4 | x4 | x4 | x4 | x4 | x4 | x4 | %193
 x4 | x4 | x7/2[K:treble] x/ | x4 | x4 | x4 | x4 | x4 | x4 | x4 | x4 | x4 | x4 | x4 | x4 | x4 | %209
 x4 | x4 | x4 | x4 | x4 | x4 | x4 | x4 | x4 | x4 | x4 | x4 | x4 | x4 | x4 | x4 | x4 | x4 | x4 | %228
 x4 | x4 | x4 | x4 | x4 | x4 | x4 | x4 | x4 | x4 | x4 | x4 | x4 | x4 | x4 | x4 |[K:bass] x4 | x4 | %246
 x4 | x4 | x4 |[K:treble] x4 | x4 | x4 | x4 | x4 | x4 | x4 | x4 | x4 | x4 | x4 | x4 | x4 | x4 | %263
 x4 | x4 | x4 | x4 | x4 | x4 | x4 | x4 | x4 | x4 | x4 | x4 | x4 | x4 | x4 | x7/2[K:bass] x/ | x4 | %280
 x4 | x7/2[K:treble] x/ | x4 | x4 | x4 | x4 |[K:bass] x4 | x4 | x4 | x4 | x4 |[K:treble] x4 | x4 | %293
 x4 | x4 | x2[K:bass] x2 | x4 | x7/2[K:treble] x/ | x4 | x4 | x4 | x4 | x4 | x4 | x4 | x4 | x4 | %307
 x4 | x4 | x4 | x4 | x4 | x4 | x4 | x4 | x4 | x4 | x4 | x4 | x4 | x4 | x4 | x4 | x4 | x4 | x4 | %326
 x2[K:bass] x2 | x7/2 |][K:C][M:9/8][K:treble] x9 | x9 | x9 | x9 | x9 | x9 | x9 | x9 | x9 | x37/4 | %338
 x9 | x9 | x9 | x9 | x9 | x9 | x9 | x9 | x9 | x9 | x9 | x9 | x9 | %351
 x3 x2 (6:4:6x/4x/4x/4x/4x/4x/4 x2 x | x9 | (3x/x/x/(3x/x/x/ !///-!x2 x2 !///-!x x x2 x x/ x16 | %354
 x9 | x9 | x9 | x9 | x9 | x9 | x9 | x6[K:bass] x3 | x9 |[K:treble] x9 | x9 | x9 | x9 | x9 | x9 | %369
 x9 | x9 | x9 | x9 | x9 | x9 | x9 | x6[K:bass] x3 | x3[K:treble] x3[K:bass] x3 | x3[K:treble] x6 | %379
 x9 | x9 | x9 | x9 | x9 | x[K:bass] x8 | x9 | x9 | x9/2[K:treble] x9/2 | x9 | x9 | x9 | x9 | x9 | %393
 x9 | x9 | x9 | x9 | x9 | x9 | x9 | x9 | x9 | x9 | x9 | x9 | x9 | x9 | x9 | x9 | x9 | x9 | x9 | %412
 x9 | x9 | x9 | x9 | x9 | (6:4:6x/x/x/x/x/x/ !///-!x2 x2 !///-!x x x4 x7/4 | x14 | x35/2 | x9 | %421
 x9 | x9 | x9 | x9 | x9 | x9 | x9 | %428
 x/4x/4x/4x/4(6:4:6x/4x/4x/4x/4x/4x/4(6:4:6x/4x/4x/4x/4x/4x/4 (6:4:6x/4x/4x/4x/4x/4x/4(6:4:6x/4x/4x/4x/4x/4x/4(6:4:6x/4x/4x/4x/4x/4!trill)!x/4 x/4x/4x/4x/4(6:4:6x/4x/4x/4x/4x/4x/4(6:4:6x/4x/4x/4x/4x/4!trill)!x/4 | %429
 x/4x/4x/4x/4(6:4:6x/4x/4x/4x/4x/4x/4(6:4:6x/4x/4x/4x/4x/4x/4 (6:4:6x/4x/4x/4x/4x/4x/4(6:4:6x/4x/4x/4x/4x/4x/4(6:4:6x/4x/4x/4x/4x/4!trill)!x/4 x/4x/4x/4x/4(6:4:6x/4x/4x/4x/4x/4x/4(6:4:6x/4x/4x/4x/4x/4!trill)!x/4 | %430
 (7:4:7x/4x/4x/4x/4x/4 ^G/4A/4 (7:4:7x/4x/4x/4x/4x/4 =B/4c/4 (7:4:7x/4x/4x/4x/4x/4 e/4f/4 x2 x4 | %431
 x9 | x9 | x9 | x9 | x9 | x7/2[K:bass] x11/2 | x9 | x9 | x9 | x9 | x9 | x9 | x9 | x9 | %445
[K:treble] x9 | x9 | x9 | x9 |][K:G][M:2/2] x4 | x8 | x8 | x8 | x8 | x8 | x8 | x8 | x8 | x8 | x8 | %460
 x8 | x8 | x8 | x8 | x8 | x8 | x8 | x8 | x8 | x8 | x8 | x8 | x8 | x8 | x8 | x8 | x8 | x8 | x8 | %479
 x8 | x8 | x8 | x8 | x8 | x8 | x8 | x8 | x8 | x8 | x8 | x8 | x8 | x8 | x8 | x8 | x8 | x8 | x8 | %498
 x8 | x8 | x8 | x8 | x8 | x8 | x8 | x8 | x8 | x8 | x8 | x8 | x8 | x8 | x8 | x8 | x8 | x8 | x8 | %517
 x8 | x8 | x8 | x8 | x8 | x8 | x8 | x8 | x8 | x8 | x8 | x8 | x8 | x8 | x8 | x8 | x8 | x8 | x8 | %536
 x4[K:bass] x4 | x8 | x8 | x4[K:treble] x4 | x8 | x8 | x8 | x8 | x8 | x8 | x8 | x8 | x8 | x8 | x8 | %551
 x8 | x8 | x8 | x8 | x8 | x8 | x8 | x8 | x8 | x8 | x8 | x8 | x8 | x8 | x8 | x8 | x8 | x8 | x8 | %570
 x8 | x8 | x8 | x8 | x8 | x8 | x8 | x8 | x8 | x8 | x8 | x8 | x8 | x8 | x8 | x8 | x8 | x8 | x8 | %589
 x8 | x8 | x8 | x8 | x8 | x8 | x8 | x8 | x8 | x8 | x8 | x8 | x8 | x8 | x8 | x8 | x8 | x8 | x8 | %608
 x8 | x8 | x8 | x8 | x8 | x8 | x8 | x8 | x8 | x8 | x8 | x8 | x8 | x8 | x8 | x8 | x8 | x8 | x8 | %627
 x8 | x8 | x8 | x8 | x8 | x6[K:bass] x2 | x8 | x8 | x8 | x8 | x8 |[K:treble] x8 | x8 | x8 | x8 | %642
 x8 | x8 | x8 | x8 | x8 | x8 | x8 | x8 | x8 | x8 | x8 | x8 | x8 | x8 | x8 | x8 | x8 | x8 | x8 | %661
 x8 | x8 | x8 | x8 | x8 | x8 | x8 | x8 | x8 | x8 | x8 | x8 | x8 | x8 | x8 | x8 | x8 | x8 | x8 | %680
 x8 | x8 | x8 | x8 | x8 | x8 | x8 | x8 | x8 | x8 | x8 | x8 | x8 | x8 | x8 | x8 | x8 | x8 | x8 | %699
 x8 | x8 | x8 | x8 | x8 | x8 | x8 | x8 | x8 | x8 | x8 | x8 | x8 | x8 | x8 | x8 | x8 | x8 | x8 | %718
 x8 | x8 | x8 | x8 | x4[K:bass] x4 | x8 | x8 |] %725
V:6
 x/ | x4 | x4 |: x4 | x4 | x4 | x4 | x4 | x4 | x4 | x4 | x4 | x4 | x4 | x4 | x4 | x4 | x4 | x4 | %19
 x4 | x4 | x4 | x4 | x4 | x4 | x4 | x4 | x4 | x4 | x4 | x4 | x4 | x4 | x4 | x4 | x4 | x4 | x4 | %38
 x4 | x2[K:treble] x2 | x2[K:bass] x2 | x2[K:treble] x2 | x2[K:bass] x2 | x4 | x4 | x4 | x4 | x4 | %48
 x4 | x4 | x4 | x4 | x4 | x4 | x4 | x4 | x4 | x4 | x4 | x4 | x4 | x4 | x4 | x4 | x4 | x4 | x4 | %67
 x4 | x4 | x4 | x4 | x4 | x4 | x4 | x4 | x4 | x4 | x4 | x4 | x4 | x4 | x4 | x4 | x4 | x4 | x4 | %86
 x4 | x4 | x4 | x4 | x4 | x4 | x4 | x4 | x4 | x4 | x4 | x4 | x4 | x4 | x4 | x4 | x4 | x4 | x4 | %105
 x4 | x4 | x4 | x4 | x4 | x4 | x4 |1 x4 | x4 :|2 x4 | x4 || x4 | x4 | x4 | x4 | x4 | x4 | x4 | x4 | %124
 x4 | x4 | x4 | x4 | x4 | x4 | x4 | x4 | x4 | x2[K:treble] x2 |[K:bass] x2[K:treble] x2 | %135
[K:bass] x2[K:treble] x2 |[K:bass] x4 | x4 | x4 | x4 | x4 | x4 | x4 | x4 | x4 | x4 | x4 | x4 | x4 | %149
 x4 | x4 | x4 | x4 | x4 | x4 | x4 | x4 | x4 | x4 | x4 | x4 | x4 | x4 | x4 | x4 |[K:treble] x4 | %166
[K:bass] x4 | x4 | x4 |[K:treble] x4 |[K:bass] x4 | x4 | x2[K:treble] x2 | x4 | x4 | x4 | %176
[K:bass] x2[K:treble] x2 | x4 | x4 | x4 |[K:bass] x2[K:treble] x2 | x4 | x4 | x4 | x4 | %185
[K:bass] x4 |[K:treble] x4 |[K:bass] x4 |[K:treble] x4 |[K:bass] x4 | x4 | x4 | x4 | x4 | x4 | x4 | %196
 x4 | x4 | x4 | x4 | x4 | x4 | x4 | x4 | x4 | x4 | x4 | x4 | x4 | x4 | x4 | x4 | x4 | %213
[K:treble] x4 | x4 |[K:bass] x4 | x4 | x4 | x4 |[K:bass] x4 | x4 | x4 | x4 | x4 | x4 | x4 | x4 | %227
 x4 | x4 | x4 | x4 | x4 | x4 | x4 | x4 | x4 | x4 | x4 | x4 | x4 | x4 | x4 | x4 | x4 | x4 | x4 | %246
 x4 | x4 | x4 | x4 | x4 | x4 | x4 | x4 | x4 | x4 | x4 | x4 | x4 | x4 | x4 | x4 | x4 | x4 | x4 | %265
 x4 | x4 | x4 | x4 | x4 | x4 | x4 | x4 | x4 | x4 | x4 | x4 | x4 | x4 | x4 | x4 | x4 | x4 | x4 | %284
 x4 | x4 | x4 | x4 | x4 | x4 | x4 | x2[K:treble] x2 | x2[K:bass] x2 | x2[K:treble] x2 | %294
 x2[K:bass] x2 | x4 | x4 | x4 | x4 |[K:treble] x4 | x4 | x4 |[K:bass] x4 | x4 | x4 | x4 | x4 | x4 | %308
 x4 | x4 |[K:bass] x4 | x4 | x4 | x4 | x4 | x4 | x4 | x4 | x4 | x4 | x4 | x4 | x4 | x4 | x4 | x4 | %326
 x4 | x7/2 |][K:C][M:9/8] x9 | x9 | x9 | x9 | x9 | x9 | x9 | x9 | x9 | x37/4 | x9 | x9 | x9 | x9 | %342
 x9 | x9 | x9 | x9 | x9 | x9 | x9 | x9 | x9 | x9 | x3 G,,3 G,,3 | x55/2 | x9 | x9 | x9 | x9 | x9 | %359
 x9 | x9 | x9 | x9 | x9 | x9 | x9 | x9 | x9 | x9 | x9 | x9 | x9 | x9 | x9 | x9 | x9 | x9 | x9 | %378
 x9 | x9 | x9 | x9 | x9 | x9 | x9 | x9 | x9 | x9 | x9 | x9 | x9 | x9 | x9 | x9 | x9 | x9 | x9 | %397
 x9 | x9 | x9 | x9 | x9 | x9 | x9 | x9 | x9 | x9 | x9 | x9 | x9 | x9 | x9 | x9 | x9 | x9 | x9 | %416
 x3 x3 x3 | x55/4 | x14 | x35/2 | x9 | x9 | x9 | x9 | x9 | x9 | x9 | x9 | x9 | x9 | x9 | x9 | x9 | %433
 x9 | x9 | x9 | x9 | x9 | x9 | x9 | x9 | x9 | x9 | x9 | x9 | x9 | x9 | x9 |[K:treble] x9 |] %449
[K:G][M:2/2][K:bass] x4 | x8 | x8 | x8 | x8 | x8 | x8 | x8 | x8 | x8 | x8 | x8 | x8 | x8 | x8 | %464
 x8 | x8 | x8 | x8 | x8 | x8 | x8 | x8 | x8 | x8 | x8 | x8 | x8 | x8 | x8 | x8 | x8 | x8 | x8 | %483
 x8 | x8 | x8 | x8 | x8 | x8 | x8 | x8 | x8 | x8 | x8 | x8 | x8 | x8 | x8 | x8 | x8 | x8 | x8 | %502
 x8 | x8 | x8 | x8 | x8 | x8 | x8 | x8 | x8 | x8 | x8 | x8 | x8 | x8 | x8 | x8 | x8 | x8 | x8 | %521
 x8 | x8 | x8 | x8 | x8 | x8 | x8 | x8 | x8 | x8 | x8 | x8 | x8 | x8 | x8 | x8 | x8 | x8 | x8 | %540
 x8 | x8 | x8 | x8 | x8 | x8 | x8 | x8 | x8 | x8 | x8 | x2[K:treble] x6 | x2[K:bass] x6 | x8 | x8 | %555
 x8 | x8 | x8 | x8 | x8 | x8 | x8 | x8 | x8 | x8 | x8 | x8 | x8 | x8 | x8 | x8 | x8 | x8 | x8 | %574
 x8 | x8 | x8 | x8 | x8 | x8 | x8 | x8 | x8 | x8 | x8 | x8 | x8 | x8 | x8 | x8 | x8 | x8 | x8 | %593
 x8 | x8 | x8 | x8 | x8 | x8 | x8 | x8 | x8 | x8 | x8 | x8 | x8 | x8 | x8 | x8 | x8 | x8 | x8 | %612
 x8 | x8 | x8 | x8 | x8 | x8 | x8 | x8 | x8 | x8 | x8 | x8 | x8 | x8 | x8 | x8 | x8 | x8 | x8 | %631
 x8 | x8 | x8 | x8 | x8 | x8 | x8 | x8 | x8 | x8 | x8 | x8 | x8 | x8 | x8 | x8 | x8 | x8 | x8 | %650
 x8 | x8 | x8 | x8 | x8 | x8 | x8 | x8 | x8 | x8 | x8 | x8 | x8 | x8 | x8 | x8 | x8 | x8 | x8 | %669
 x8 | x8 | x8 | x8 | x8 | x8 | x8 | x8 | x8 | x8 | x8 | x8 | x8 | x8 | x8 | x8 | x8 | x8 | x8 | %688
 x8 | x8 | x8 | x8 | x8 | x8 | x8 | x8 | x8 | x8 | x8 | x8 | x6[K:treble] x2 | x4[K:bass] x4 | x8 | %703
 x8 | x8 | x8 | x6[K:treble] x2 | x8 | x8 | x6[K:bass] x2 | x8 | x8 | x8 | x8 | x8 | x8 | x8 | x8 | %718
 x8 | x8 | x8 | x8 | x8 | x8 | x8 |] %725
V:7
 x/ | x4 | x4 |: x4 | x4 | x4 | x4 | x4 | x4 | x4 | x4 | x4 | x4 | x4 | x4 | x4 | x4 | x4 | x4 | %19
 x4 | x4 | x4 | x4 | x4 | x4 | x4 | x4 | x4 | x4 | x4 | x4 | x4 | x4 | x4 |[K:bass] x4 | x4 | x4 | %37
 x4 | x4 |[K:treble] x4 | x4 | x4 | x4 | x2[K:bass] x2 | x4 | x7/2[K:treble] x/ | x4 | x4 | x4 | %49
 x4 | x4 | x4 | x4 | x4 | x4 | x4 | x4 | x4 | x4 | x4 | x4 | x4 | x4 | x4 | x4 | x4 | x4 | x4 | %68
 x4 | x4 | x4 | x4 | x4 | x4 | x4 | x4 | x4 | x4 | x4 | x4 | x4 | x4 | x4 | x4 | x4 | x4 | x4 | %87
 x4 | x4 | x4 | x4 | x4 | x4 | x4 | x4 | x4 | x4 | x4 | x4 | x4 | x4 | x4 | x4 | x4 | x4 | x4 | %106
 x4 | x4 | x7/2[K:bass] x/ | x4 | x4 | x7/2[K:treble] x/ |1 x4 | x4 :|2 x4 | x4 || x4 | x4 | x4 | %119
 x4 | x4 | x4 | x4 | x4 | x4 | x4 | x4 | x4 | x4 | x4 | x4 | x4 | x4 | x4 | x4 | x4 | x4 | x4 | %138
 x4 | x4 |[K:bass] x4 | x4 | x2[K:treble] x2 | x4 | x4 | x4 | x4 | x4 | x4 |[K:bass] x4 | %150
 x2[K:treble] x2 | x4 | x4 | x4 | x4 |[K:bass] x4 | x4 | x4 | x4 | x4 | x4 | x4 | x4 | x4 | %164
 x2[K:treble] x2 | x4 | x2[K:bass] x2 | x4 | x2[K:treble] x2 | x4 | x2[K:bass] x2 | x4 | x4 | x4 | %174
 x4 | x4 | x4 | x4 | x4 | x4 | x4 | x4 | x4 | x4 | x4 | x4 | x4 | x4 | x4 | x4 | x4 | x4 | x4 | %193
 x4 | x4 | x7/2[K:treble] x/ | x4 | x4 | x4 | x4 | x4 | x4 | x4 | x4 | x4 | x4 | x4 | x4 | x4 | %209
 x4 | x4 | x4 | x4 | x4 | x4 | x4 | x4 | x4 | x4 | x4 | x4 | x4 | x4 | x4 | x4 | x4 | x4 | x4 | %228
 x4 | x4 | x4 | x4 | x4 | x4 | x4 | x4 | x4 | x4 | x4 | x4 | x4 | x4 | x4 | x4 |[K:bass] x4 | x4 | %246
 x4 | x4 | x4 |[K:treble] x4 | x4 | x4 | x4 | x4 | x4 | x4 | x4 | x4 | x4 | x4 | x4 | x4 | x4 | %263
 x4 | x4 | x4 | x4 | x4 | x4 | x4 | x4 | x4 | x4 | x4 | x4 | x4 | x4 | x4 | x7/2[K:bass] x/ | x4 | %280
 x4 | x7/2[K:treble] x/ | x4 | x4 | x4 | x4 |[K:bass] x4 | x4 | x4 | x4 | x4 |[K:treble] x4 | x4 | %293
 x4 | x4 | x2[K:bass] x2 | x4 | x7/2[K:treble] x/ | x4 | x4 | x4 | x4 | x4 | x4 | x4 | x4 | x4 | %307
 x4 | x4 | x4 | x4 | x4 | x4 | x4 | x4 | x4 | x4 | x4 | x4 | x4 | x4 | x4 | x4 | x4 | x4 | x4 | %326
 x2[K:bass] x2 | x7/2 |][K:C][M:9/8][K:treble] x9 | x9 | x9 | x9 | x9 | x9 | x9 | x9 | x9 | x37/4 | %338
 x9 | x9 | x9 | x9 | x9 | x9 | x9 | x9 | x9 | x9 | x9 | x9 | x9 | x9 | x9 | x55/2 | x9 | x9 | x9 | %357
 x9 | x9 | x9 | x9 | x6[K:bass] x3 | x9 |[K:treble] x9 | x9 | x9 | x9 | x9 | x9 | x9 | x9 | x9 | %372
 x9 | x9 | x9 | x9 | x6[K:bass] x3 | x3[K:treble] x3[K:bass] x3 | x3[K:treble] x6 | x9 | x9 | x9 | %382
 x9 | x9 | x[K:bass] x8 | x9 | x9 | x9/2[K:treble] x9/2 | x9 | x9 | x9 | x9 | E x8 | x9 | x9 | x9 | %396
 x9 | x9 | x9 | x9 | x9 | x9 | x9 | x9 | x9 | x9 | x9 | x9 | x9 | x9 | x9 | x9 | x9 | x9 | x9 | %415
 x9 | x9 | x55/4 | x14 | x35/2 | x8 x | x9 | x9 | x9 | x9 | x9 | x9 | x9 | x9 | x9 | x9 | x9 | x9 | %433
 x9 | x9 | x9 | x7/2[K:bass] x11/2 | x9 | x9 | x9 | x9 | x9 | x9 | x9 | x9 |[K:treble] x9 | x9 | %447
 x9 | x9 |][K:G][M:2/2] x4 | x8 | x8 | x8 | x8 | x8 | x8 | x8 | x8 | x8 | x8 | x8 | x8 | x8 | x8 | %464
 x8 | x8 | x8 | x8 | x8 | x8 | x8 | x8 | x8 | x8 | x8 | x8 | x8 | x8 | x8 | x8 | x8 | x8 | x8 | %483
 x8 | x8 | x8 | x8 | x8 | x8 | x8 | x8 | x8 | x8 | x8 | x8 | x8 | x8 | x8 | x8 | x8 | x8 | x8 | %502
 x8 | x8 | x8 | x8 | x8 | x8 | x8 | x8 | x8 | x8 | x8 | x8 | x8 | x8 | x8 | x8 | x8 | x8 | x8 | %521
 x8 | x8 | x8 | x8 | x8 | x8 | x8 | x8 | x8 | x8 | x8 | x8 | x8 | x8 | x8 | x4[K:bass] x4 | x8 | %538
 x8 | x4[K:treble] x4 | x8 | x8 | x8 | x8 | x8 | x8 | x8 | x8 | x8 | x4 _E4- | E6 =D2 | x8 | x8 | %553
 x8 | x8 | x8 | x8 | x4 C4- | C6 =B,2 | x8 | x8 | x8 | x8 | x8 | x8 | x8 | x8 | x8 | x8 | x8 | x8 | %571
 x8 | x4 (G4 | G6 G2) | x8 | x8 | x8 | x8 | x8 | x8 | x8 | x8 | x8 | x8 | x8 | x8 | x8 | x8 | x8 | %589
 x8 | x8 | x8 | x8 | x8 | x8 | x8 | x8 | x8 | x8 | x8 | x8 | x8 | x8 | x8 | x8 | x8 | x8 | x8 | %608
 x8 | x8 | x8 | x8 | x8 | x8 | x8 | x8 | x8 | x8 | x8 | x8 | x8 | x8 | x8 | x8 | x8 | x8 | x8 | %627
 x8 | x8 | x8 | x8 | x8 | x6[K:bass] x2 | x8 | x8 | x8 | x8 | x8 |[K:treble] x8 | x8 | x8 | x8 | %642
 x8 | x8 | x8 | x8 | x8 | x8 | x8 | x8 | x8 | x8 | x8 | x8 | x8 | x8 | x8 | x8 | x8 | x8 | x8 | %661
 x8 | x8 | x8 | x8 | x8 | x8 | x8 | x8 | x8 | x8 | x8 | x8 | x8 | x8 | x8 | x8 | x8 | x8 | x8 | %680
 x8 | x8 | x8 | x8 | x8 | x8 | x8 | x8 | x8 | x8 | x8 | x8 | x8 | x8 | x8 | x8 | x8 | x8 | x8 | %699
 x8 | x8 | x8 | x8 | x8 | x8 | x8 | x8 | x8 | x8 | x8 | x8 | x8 | x8 | x8 | x8 | x8 | x8 | x8 | %718
 x8 | x8 | x8 | x8 | x4[K:bass] x4 | x8 | x8 |] %725
V:8
 x/ | x4 | x4 |: x4 | x4 | x4 | x4 | x4 | x4 | x4 | x4 | x4 | x4 | x4 | x4 | x4 | x4 | x4 | x4 | %19
 x4 | x4 | x4 | x4 | x4 | x4 | x4 | x4 | x4 | x4 | x4 | x4 | x4 | x4 | x4 | x4 | x4 | x4 | x4 | %38
 x4 | x2[K:treble] x2 | x2[K:bass] x2 | x2[K:treble] x2 | x2[K:bass] x2 | x4 | x4 | x4 | x4 | x4 | %48
 x4 | x4 | x4 | x4 | x4 | x4 | x4 | x4 | x4 | x4 | x4 | x4 | x4 | x4 | x4 | x4 | x4 | x4 | x4 | %67
 x4 | x4 | x4 | x4 | x4 | x4 | x4 | x4 | x4 | x4 | x4 | x4 | x4 | x4 | x4 | x4 | x4 | x4 | x4 | %86
 x4 | x4 | x4 | x4 | x4 | x4 | x4 | x4 | x4 | x4 | x4 | x4 | x4 | x4 | x4 | x4 | x4 | x4 | x4 | %105
 x4 | x4 | x4 | x4 | x4 | x4 | x4 |1 x4 | x4 :|2 x4 | x4 || x4 | x4 | x4 | x4 | x4 | x4 | x4 | x4 | %124
 x4 | x4 | x4 | x4 | x4 | x4 | x4 | x4 | x4 | x2[K:treble] x2 |[K:bass] x2[K:treble] x2 | %135
[K:bass] x2[K:treble] x2 |[K:bass] x4 | x4 | x4 | x4 | x4 | x4 | x4 | x4 | x4 | x4 | x4 | x4 | x4 | %149
 x4 | x4 | x4 | x4 | x4 | x4 | x4 | x4 | x4 | x4 | x4 | x4 | x4 | x4 | x4 | x4 |[K:treble] x4 | %166
[K:bass] x4 | x4 | x4 |[K:treble] x4 |[K:bass] x4 | x4 | x2[K:treble] x2 | x4 | x4 | x4 | %176
[K:bass] x2[K:treble] x2 | x4 | x4 | x4 |[K:bass] x2[K:treble] x2 | x4 | x4 | x4 | x4 | %185
[K:bass] x4 |[K:treble] x4 |[K:bass] x4 |[K:treble] x4 |[K:bass] x4 | x4 | x4 | x4 | x4 | x4 | x4 | %196
 x4 | x4 | x4 | x4 | x4 | x4 | x4 | x4 | x4 | x4 | x4 | x4 | x4 | x4 | x4 | x4 | x4 | %213
[K:treble] x4 | x4 |[K:bass] x4 | x4 | x4 | x4 |[K:bass] x4 | x4 | x4 | x4 | x4 | x4 | x4 | x4 | %227
 x4 | x4 | x4 | x4 | x4 | x4 | x4 | x4 | x4 | x4 | x4 | x4 | x4 | x4 | x4 | x4 | x4 | x4 | x4 | %246
 x4 | x4 | x4 | x4 | x4 | x4 | x4 | x4 | x4 | x4 | x4 | x4 | x4 | x4 | x4 | x4 | x4 | x4 | x4 | %265
 x4 | x4 | x4 | x4 | x4 | x4 | x4 | x4 | x4 | x4 | x4 | x4 | x4 | x4 | x4 | x4 | x4 | x4 | x4 | %284
 x4 | x4 | x4 | x4 | x4 | x4 | x4 | x2[K:treble] x2 | x2[K:bass] x2 | x2[K:treble] x2 | %294
 x2[K:bass] x2 | x4 | x4 | x4 | x4 |[K:treble] x4 | x4 | x4 |[K:bass] x4 | x4 | x4 | x4 | x4 | x4 | %308
 x4 | x4 |[K:bass] x4 | x4 | x4 | x4 | x4 | x4 | x4 | x4 | x4 | x4 | x4 | x4 | x4 | x4 | x4 | x4 | %326
 x4 | x7/2 |][K:C][M:9/8] x9 | x9 | x9 | x9 | x9 | x9 | x9 | x9 | x9 | x37/4 | x9 | x9 | x9 | x9 | %342
 x9 | x9 | x9 | x9 | x9 | x9 | x9 | x9 | x9 | x9 | x9 | x55/2 | x9 | x9 | x9 | x9 | x9 | x9 | x9 | %361
 x9 | x9 | x9 | x9 | x9 | x9 | x9 | x9 | x9 | x9 | x9 | x9 | x9 | x9 | x9 | x9 | x9 | x9 | x9 | %380
 x9 | x9 | x9 | x9 | x9 | x9 | x9 | x9 | x9 | x9 | x9 | x9 | x9 | x9 | x9 | x9 | x9 | x9 | x9 | %399
 x9 | x9 | x9 | x9 | x9 | x9 | x9 | x9 | x9 | x9 | x9 | x9 | x9 | x9 | x9 | x9 | x9 | x9 | x55/4 | %418
 x14 | x35/2 | x9 | x9 | x9 | x9 | x9 | x9 | x9 | x9 | x9 | x9 | x9 | x9 | x9 | x9 | x9 | x9 | x9 | %437
 x9 | x9 | x9 | x9 | x9 | x9 | x9 | x9 | x9 | x9 | x9 |[K:treble] x9 |][K:G][M:2/2][K:bass] x4 | %450
 x8 | x8 | x8 | x8 | x8 | x8 | x8 | x8 | x8 | x8 | x8 | x8 | x8 | x8 | x8 | x8 | x8 | x8 | x8 | %469
 x8 | x8 | x8 | x8 | x8 | x8 | x8 | x8 | x8 | x8 | x8 | x8 | x8 | x8 | x8 | x8 | x8 | x8 | x8 | %488
 x8 | x8 | x8 |{/^C,} x8 | x8 | x8 | x8 | x8 | x8 | x8 | x8 | x8 | x8 | x8 | x8 | x8 | x8 | x8 | %506
 x8 | x8 | x8 | x8 | x8 | x8 | x8 | x8 | x8 | x8 | x8 | x8 | x8 | x8 | x8 | x8 | x8 | x8 | x8 | %525
 x8 | x8 | x8 | x8 | x8 | x8 | x8 | x8 | x8 | x8 | x8 | x8 | x8 | x8 | x8 | x8 | x8 | x8 | x8 | %544
 x8 | x8 | x8 | x8 | x8 | x8 | x8 | x2[K:treble] x6 | x2[K:bass] x6 | x8 | x8 | x8 | x8 | x8 | x8 | %559
 x8 | x8 | x8 | x8 | x8 | x8 | x8 | x8 | x8 | x8 | x8 | x8 | x8 | x8 | x8 | x8 | x8 | x8 | x8 | %578
 x8 | x8 | x8 | x8 | x8 | x8 | x8 | x8 | x8 | x8 | x8 | x8 | x8 | x8 | x8 | x8 | x8 | x8 | x8 | %597
 x8 | x8 | x8 | x8 | x8 | x8 | x8 | x8 | x8 | x8 | x8 | x8 | x8 | x8 | x8 | x8 | x8 | x8 | x8 | %616
 x8 | x8 | x8 | x8 | x8 | x8 | x8 | x8 | x8 | x8 | x8 |{/F,} x8 | x8 | x8 | x8 | x8 | x8 | x8 | %634
 x8 | x8 | x8 | x8 | x8 | x8 | x8 | x8 | x8 | x8 | x8 | x8 | x8 | x8 | x8 | x8 | x8 | x8 | x8 | %653
 x8 | x8 | x8 | x8 | x8 | x8 | x8 | x8 | x8 | x8 | x8 | x8 | x8 | x8 | x8 | x8 | x8 | x8 | x8 | %672
 x8 | x8 | x8 | x8 | x8 | x8 | x8 | x8 | x8 | x8 | x8 | x8 | x8 | x8 | x8 | x8 | x8 | x8 | x8 | %691
 x8 | x8 | x8 | x8 | x8 | x8 | x8 | x8 | x8 | x6[K:treble] x2 | x4[K:bass] x4 | x8 | x8 | x8 | x8 | %706
 x6[K:treble] x2 | x8 | x8 | x6[K:bass] x2 | x8 | x8 | x8 | x8 | x8 | x8 | x8 | x8 | x8 | x8 | x8 | %721
 x8 | x8 | x8 | x8 |] %725

